!!!!SEGMENT: pl-cz--iii-590--002_rygall-ignacy--omni-die-dic-mariae-coro-contemplare.krn
!!!cenid: 17xx:1113
!!!COM: Rygall, Ignacy
!!!COM-rismid: pe30110281
!!!CDT: <1750->1799
!!!CNT:
!!!OPR: Omni die dic Mariae
!!!OTL: Coro - Contemplare
!!!OMV: 002
!!!PDT:
!!!AGN:
!!!SMS-siglum: PL-CZ
!!!SMS-shelfmark: III-590
!!!SMS-shelfwork: 001-002 M
!!!SMS-variant:
!!!SMS-altvar:
!!!NIFC-rismid: 300001128
!!!URL-scan: http://repozytorium.nifc.pl/skany/pl-cz-nut--iii-590
!!!ONB-nifc: UWAGA: części Omni die: Aria – Omni die dic Mariae, Coro – Contemplare
!!!key: G
**kern	**kern	**dynam	**kern	**dynam	**kern	**text	**kern	**text	**kern	**text	**kern	**kern	**kern	**kern
*part10	*part9	*part9	*part8	*part8	*part7	*part7	*part6	*part6	*part5	*part5	*part4	*part3	*part2	*part1
*staff10	*staff9	*	*staff8	*	*staff7	*staff7	*staff6	*staff6	*staff5	*staff5	*staff4	*staff3	*staff2	*staff1
*I"Baſso	*I"Violino Secondo	*	*I"Violino Primo	*	*I"Baſso	*	*I"Alto	*	*I"Soprano. Solo.	*	*I"Corno 2do in G	*I"Corno Imo in G:	*I"Flauto IIdo	*I"Flauto Imo
*I'[org]	*I'vl II	*	*I'vl I	*	*I'B	*	*I'A	*	*I'S	*	*I'cor II	*I'cor I	*I'fl II	*I'fl I
*ICklav	*ICstr	*	*ICstr	*	*ICvox	*	*ICvox	*	*ICvox	*	*ICbras	*ICbras	*ICww	*ICww
*Iorgan	*Ivioln	*	*Ivioln	*	*Ibass	*	*Ialto	*	*Isoprn	*	*Icor	*Icor	*Iflt	*Iflt
*clefF4	*clefG2	*	*clefG2	*	*clefF4	*	*clefC3	*	*clefC1	*	*clefG2	*clefG2	*clefG2	*clefG2
*	*	*	*	*	*	*	*	*	*	*	*ITrd3c5	*ITrd3c5	*	*
*G:	*G:	*	*G:	*	*G:	*	*G:	*	*G:	*	*G:	*G:	*G:	*G:
*k[f#]	*k[f#]	*	*k[f#]	*	*k[f#]	*	*k[f#]	*	*k[f#]	*	*k[f#]	*k[f#]	*k[f#]	*k[f#]
*M4/4	*M4/4	*	*M4/4	*	*M4/4	*	*M4/4	*	*M4/4	*	*M4/4	*M4/4	*M4/4	*M4/4
*met(c)	*met(c)	*	*met(c)	*	*met(c)	*	*met(c)	*	*met(c)	*	*met(c)	*met(c)	*met(c)	*met(c)
=1	=1	=1	=1	=1	=1	=1	=1	=1	=1	=1	=1	=1	=1	=1
!LO:TX:a:B:t=Coro	!	!	!	!	!	!	!	!	!	!	!	!LO:TX:a:B:t=Coro in G	!	!
!	!LO:TX:a:B:t=Coro	!	!	!	!LO:TX:a:B:t=Coro	!	!	!	!LO:TX:a:B:t=Vivace	!	!	!	!	!
!	!	!	!	!	!	!	!LO:TX:a:B:t=Coro	!	!LO:TX:a:B:t=Coro	!	!	!	!	!
!LO:TX:a:B:t=allo vivace	!LO:TX:a:B:t=allo Vivace	!	!LO:TX:a:B:t=allo Vivace	!	!LO:TX:a:B:t=allo vivace	!	!LO:TX:a:B:t=allo vivace	!	!LO:TX:a:t=15	!	!LO:TX:a:B:t=Coro in G:	!	!LO:TX:a:B:t=Coro Tace	!LO:TX:a:B:t=Coro Tace.
!	!	!	!	!	!	!	!	!	!	!	!LO:TX:a:B:t=allo vivace	!	!	!
4G\	4d/	.	4b\	.	1r	.	1r	.	1r	.	4g/	4b\	1ryy	1ryy
4D/	4f#/	.	4a/	.	.	.	.	.	.	.	4d/	4a\	.	.
4E/	4B/	.	4g/	.	.	.	.	.	.	.	4B/	4g\	.	.
4r	4r	.	16r	.	.	.	.	.	.	.	4r	4r	.	.
.	.	.	16g/LL	.	.	.	.	.	.	.	.	.	.	.
.	.	.	16a/	.	.	.	.	.	.	.	.	.	.	.
.	.	.	16b/JJ	.	.	.	.	.	.	.	.	.	.	.
=2	=2	=2	=2	=2	=2	=2	=2	=2	=2	=2	=2	=2	=2	=2
4F#\	4a/	.	4cc/	.	1r	.	1r	.	1r	.	4a/	4cc/	1ryy	1ryy
4G/	4g/	.	4b/	.	.	.	.	.	.	.	4g/	4b/	.	.
4D/	4f#/	.	4a/	.	.	.	.	.	.	.	4d/	4a/	.	.
4r	4r	.	4r	.	.	.	.	.	.	.	4r	4r	.	.
=3	=3	=3	=3	=3	=3	=3	=3	=3	=3	=3	=3	=3	=3	=3
4E/	4g/	.	4cc/	.	1r	.	1r	.	1r	.	1r	1r	1ryy	1ryy
4D/	4f#/	.	4b/	.	.	.	.	.	.	.	.	.	.	.
4C/	4g/	.	4ee/	.	.	.	.	.	.	.	.	.	.	.
8BB/L	8b/L	.	8dd/L	.	.	.	.	.	.	.	.	.	.	.
8C/J	8a/J	.	8cc/J	.	.	.	.	.	.	.	.	.	.	.
=4	=4	=4	=4	=4	=4	=4	=4	=4	=4	=4	=4	=4	=4	=4
4D/	4g/	.	8.b\L	.	1r	.	1r	.	1r	.	4g/	4b\	1ryy	1ryy
.	.	.	16dd/Jk	.	.	.	.	.	.	.	.	.	.	.
4DD/	4f#/	.	(4a/	.	.	.	.	.	.	.	4d\	4a/	.	.
4GG/	4B/	.	4g/)	.	.	.	.	.	.	.	4G/	4g/	.	.
4r	4r	.	4r	.	.	.	.	.	.	.	4r	4r	.	.
=5	=5	=5	=5	=5	=5	=5	=5	=5	=5	=5	=5	=5	=5	=5
!	!	!LO:DY:t=p&colon;	!	!LO:DY:t=p&colon;	!	!	!	!	!	!	!	!	!	!
4E/	4g/	p	4cc\	p	1r	.	1r	.	1r	.	1r	1r	1ryy	1ryy
4D/	4f#/	.	4b\	.	.	.	.	.	.	.	.	.	.	.
4C/	4g/	.	4ee/	.	.	.	.	.	.	.	.	.	.	.
8BB/L	8b/L	.	8dd/L	.	.	.	.	.	.	.	.	.	.	.
8C/J	8a/J	.	8cc/J	.	.	.	.	.	.	.	.	.	.	.
=6	=6	=6	=6	=6	=6	=6	=6	=6	=6	=6	=6	=6	=6	=6
4D\	4g/	.	4b\	.	1r	.	1r	.	1r	.	4g\	2r	1ryy	1ryy
4DD/	4f#/	.	4a/	.	.	.	.	.	.	.	4d/	.	.	.
!LO:TX:t=P:problem=mixed beam	!	!	!	!	!	!	!	!	!	!	!	!	!	!
!	!	!	!	!LO:DY:t=for	!	!	!	!	!	!	!	!	!	!
8GG\L	8B/L	.	8g/L	f	.	.	.	.	.	.	4G/	4g/	.	.
8B\	16d/L	.	16dd/L	.	.	.	.	.	.	.	.	.	.	.
.	16d/JJ	.	16dd/JJ	.	.	.	.	.	.	.	.	.	.	.
*	*tremolo	*	*	*	*	*	*	*	*	*	*	*	*	*
!	!	!	!LO:TX:t=P:problem=mixed beam	!	!	!	!	!	!	!	!	!	!	!
8A\	16d/LL	.	16cc/LL	.	.	.	.	.	.	.	4r	4r	.	.
.	16d/	.	16cc/	.	.	.	.	.	.	.	.	.	.	.
8c\J	16d/	.	16f#/	.	.	.	.	.	.	.	.	.	.	.
.	16d/JJ	.	16f#/JJ	.	.	.	.	.	.	.	.	.	.	.
!LO:LB:g=original	!	!	!LO:LB:g=original	!	!	!	!	!	!	!	!	!	!	!
=7	=7	=7	=7	=7	=7	=7	=7	=7	=7	=7	=7	=7	=7	=7
8B\L	16d/LL	.	16g/LL	.	1r	.	1r	.	1r	.	2r	2r	1ryy	1ryy
.	16d/	.	16g/	.	.	.	.	.	.	.	.	.	.	.
8G/	16d/	.	16dd/	.	.	.	.	.	.	.	.	.	.	.
.	16d/	.	16dd/JJ	.	.	.	.	.	.	.	.	.	.	.
8A/	16d/	.	16cc/LL	.	.	.	.	.	.	.	.	.	.	.
.	16d/	.	16cc/	.	.	.	.	.	.	.	.	.	.	.
8c\J	16d/	.	16f#/	.	.	.	.	.	.	.	.	.	.	.
.	16d/JJ	.	16f#/JJ	.	.	.	.	.	.	.	.	.	.	.
8B\L	8d/L	.	8g/L	.	.	.	.	.	.	.	4G/	4g/	.	.
8G/	16d/L	.	16dd/L	.	.	.	.	.	.	.	.	.	.	.
.	16d/JJ	.	16dd/JJ	.	.	.	.	.	.	.	.	.	.	.
8A\	16d/LL	.	16cc/LL	.	.	.	.	.	.	.	4r	4r	.	.
.	16d/	.	16cc/	.	.	.	.	.	.	.	.	.	.	.
8c\J	16d/	.	16f#/	.	.	.	.	.	.	.	.	.	.	.
.	16d/JJ	.	16f#/JJ	.	.	.	.	.	.	.	.	.	.	.
!	!LO:LB:g=original	!	!	!	!	!	!	!	!	!	!	!LO:LB:g=original	!	!
=8	=8	=8	=8	=8	=8	=8	=8	=8	=8	=8	=8	=8	=8	=8
!	!LO:TX:t=P:problem=nadliczbowa kreska taktowa	!	!	!	!	!	!	!	!	!	!	!	!	!
8B/L	16d/LL	.	16g/LL	.	1r	.	1r	.	1r	.	2r	1ryy	1ryy	1ryy
.	16d/	.	16g/	.	.	.	.	.	.	.	.	.	.	.
8G/	16d/	.	16dd/	.	.	.	.	.	.	.	.	.	.	.
.	16d/	.	16dd/JJ	.	.	.	.	.	.	.	.	.	.	.
8A/	16d/	.	16cc/LL	.	.	.	.	.	.	.	.	.	.	.
.	16d/	.	16cc/	.	.	.	.	.	.	.	.	.	.	.
8c/J	16d/	.	16f#/	.	.	.	.	.	.	.	.	.	.	.
.	16d/JJ	.	16f#/JJ	.	.	.	.	.	.	.	.	.	.	.
!	!	!	!LO:TX:t=P:problem=mixed beam	!	!	!	!	!	!	!	!	!	!	!
8B\L	8d/L	.	8g\L	.	.	.	.	.	.	.	4G/	.	.	.
8e\	16g/L	.	16gg\L	.	.	.	.	.	.	.	.	.	.	.
.	16g/JJ	.	16gg\JJ	.	.	.	.	.	.	.	.	.	.	.
8d\	16g/LL	.	16ff#/LL	.	.	.	.	.	.	.	4r	.	.	.
.	16g/	.	16ff#/	.	.	.	.	.	.	.	.	.	.	.
8c\J	16g/	.	16ee/	.	.	.	.	.	.	.	.	.	.	.
.	16g/JJ	.	16ee/JJ	.	.	.	.	.	.	.	.	.	.	.
!	!	!	!	!	!	!	!	!	!	!	!LO:LB:g=original	!	!	!
=9	=9	=9	=9	=9	=9	=9	=9	=9	=9	=9	=9	=9	=9	=9
8B\L	16g/LL	.	16dd/LL	.	1r	.	1r	.	1r	.	4G/	4g/	1ryy	1ryy
.	16g/	.	16dd/	.	.	.	.	.	.	.	.	.	.	.
8e\	16g/	.	16gg/	.	.	.	.	.	.	.	.	.	.	.
.	16g/	.	16gg//JJ	.	.	.	.	.	.	.	.	.	.	.
8d\	16g/	.	16ff#/LL	.	.	.	.	.	.	.	8G/L	8g/L	.	.
.	16g/	.	16ff#/	.	.	.	.	.	.	.	.	.	.	.
8c\J	16g/	.	16ee/	.	.	.	.	.	.	.	8G/J	8g/J	.	.
.	16g/JJ	.	16ee/JJ	.	.	.	.	.	.	.	.	.	.	.
8B\L	8g/L	.	8dd/L	.	.	.	.	.	.	.	4G/	4g/	.	.
8e\	16g/L	.	16gg/L	.	.	.	.	.	.	.	.	.	.	.
.	16g/JJ	.	16gg/JJ	.	.	.	.	.	.	.	.	.	.	.
8d\	16g/LL	.	16ff#/LL	.	.	.	.	.	.	.	8G/L	8g/L	.	.
.	16g/	.	16ff#/	.	.	.	.	.	.	.	.	.	.	.
8c\J	16g/	.	16ee/	.	.	.	.	.	.	.	8G/J	8g/J	.	.
.	16g/JJ	.	16ee/JJ	.	.	.	.	.	.	.	.	.	.	.
=10	=10	=10	=10	=10	=10	=10	=10	=10	=10	=10	=10	=10	=10	=10
*	*	*	*	*	*	*	*	*	*	*	*tremolo	*	*	*
8B/L	16g/LL	.	16dd/LL	.	1r	.	1r	.	1r	.	8G/L	8g\L	1ryy	1ryy
.	16g/	.	16dd/	.	.	.	.	.	.	.	.	.	.	.
8e\	16g/	.	16gg/	.	.	.	.	.	.	.	8G/	8g\	.	.
.	16g/	.	16gg/JJ	.	.	.	.	.	.	.	.	.	.	.
8d\	16g/	.	16ff#/LL	.	.	.	.	.	.	.	8G/	8g\	.	.
.	16g/	.	16ff#/	.	.	.	.	.	.	.	.	.	.	.
8c\J	16g/	.	16ee/	.	.	.	.	.	.	.	8G/J	8g\J	.	.
.	16g/JJ	.	16ee/JJ	.	.	.	.	.	.	.	.	.	.	.
*tremolo	*	*	*	*	*	*	*	*	*	*	*	*	*	*
8B\L	8g/L	.	8dd\L	.	.	.	.	.	.	.	4G/	4g\	.	.
8B\	16g/L	.	16gg\L	.	.	.	.	.	.	.	.	.	.	.
.	16g/JJ	.	16gg\JJ	.	.	.	.	.	.	.	.	.	.	.
8B\	16g/LL	.	16ffn/LL	.	.	.	.	.	.	.	4r	4r	.	.
.	16g/	.	16ff/	.	.	.	.	.	.	.	.	.	.	.
8B\J	16g/	.	16dd#X/	.	.	.	.	.	.	.	.	.	.	.
.	16g/JJ	.	16dd#/JJ	.	.	.	.	.	.	.	.	.	.	.
!	!	!	!LO:LB:g=original	!	!	!	!	!	!	!	!	!	!	!
=11	=11	=11	=11	=11	=11	=11	=11	=11	=11	=11	=11	=11	=11	=11
*	*	*	*tremolo	*	*	*	*	*	*	*	*	*	*	*
!LO:TX:t=P:problem=mixed beam	!	!	!	!	!	!	!	!	!	!	!	!	!	!
8c/L	16g/LL	.	16ee\LL	.	1r	.	1r	.	1r	.	1r	1r	1ryy	1ryy
.	16g/	.	16ee\	.	.	.	.	.	.	.	.	.	.	.
8C/	16g/	.	16ee\	.	.	.	.	.	.	.	.	.	.	.
.	16g/	.	16ee\	.	.	.	.	.	.	.	.	.	.	.
8C/	16g/	.	16ee\	.	.	.	.	.	.	.	.	.	.	.
.	16g/	.	16ee\	.	.	.	.	.	.	.	.	.	.	.
8C/J	16g/	.	16ee\	.	.	.	.	.	.	.	.	.	.	.
.	16g/JJ	.	16ee\JJ	.	.	.	.	.	.	.	.	.	.	.
8C/L	16g/LL	.	16ff#\LL	.	.	.	.	.	.	.	.	.	.	.
.	16g/	.	16ff#\	.	.	.	.	.	.	.	.	.	.	.
8C/	16g/	.	16ff#\	.	.	.	.	.	.	.	.	.	.	.
.	16g/	.	16ff#\JJ	.	.	.	.	.	.	.	.	.	.	.
8C/	16g/	.	16gg\LL	.	.	.	.	.	.	.	.	.	.	.
.	16g/	.	16gg\	.	.	.	.	.	.	.	.	.	.	.
8C/J	16g/	.	16gg\	.	.	.	.	.	.	.	.	.	.	.
.	16g/JJ	.	16gg\JJ	.	.	.	.	.	.	.	.	.	.	.
=12	=12	=12	=12	=12	=12	=12	=12	=12	=12	=12	=12	=12	=12	=12
8D\L	16b\LL	.	16gg\LL	.	1r	.	1r	.	1r	.	2g\	2b\	1ryy	1ryy
.	16b\	.	16gg\	.	.	.	.	.	.	.	.	.	.	.
8D\	16b\	.	16gg\	.	.	.	.	.	.	.	.	.	.	.
.	16b\	.	16gg\	.	.	.	.	.	.	.	.	.	.	.
8D\	16b\	.	16gg\	.	.	.	.	.	.	.	.	.	.	.
.	16b\	.	16gg\	.	.	.	.	.	.	.	.	.	.	.
8D\J	16b\	.	16gg\	.	.	.	.	.	.	.	.	.	.	.
.	16b\JJ	.	16gg\JJ	.	.	.	.	.	.	.	.	.	.	.
8DD/L	16a\LL	.	16ff#\LL	.	.	.	.	.	.	.	2d\	2a\	.	.
.	16a\	.	16ff#\	.	.	.	.	.	.	.	.	.	.	.
8DD/	16a\	.	16ff#\	.	.	.	.	.	.	.	.	.	.	.
.	16a\	.	16ff#\	.	.	.	.	.	.	.	.	.	.	.
8DD/	16a\	.	16ff#\	.	.	.	.	.	.	.	.	.	.	.
.	16a\	.	16ff#\	.	.	.	.	.	.	.	.	.	.	.
8DD/J	16a\	.	16ff#\	.	.	.	.	.	.	.	.	.	.	.
.	16a\JJ	.	16ff#\JJ	.	.	.	.	.	.	.	.	.	.	.
=13	=13	=13	=13	=13	=13	=13	=13	=13	=13	=13	=13	=13	=13	=13
4GG/	4g/	.	4d\ 4b 4gg	.	1r	.	1r	.	1r	.	4B/	4g/	1ryy	1ryy
4r	4r	.	4r	.	.	.	.	.	.	.	8.b/L	8.dd\L	.	.
.	.	.	.	.	.	.	.	.	.	.	16a/Jk	16cc/Jk	.	.
4r	4r	.	4r	.	.	.	.	.	.	.	4g/	4b/	.	.
8.D\L	8.cc/L	.	8.aa\L	.	.	.	.	.	.	.	4d/	4a/	.	.
16D/Jk	16a/Jk	.	16ff#/Jk	.	.	.	.	.	.	.	.	.	.	.
=14	=14	=14	=14	=14	=14	=14	=14	=14	=14	=14	=14	=14	=14	=14
4GG/	4d/ 4b	.	4d/ 4b 4gg	.	1r	.	1r	.	1r	.	4B/	4g\	1ryy	1ryy
4r	4r	.	4r	.	.	.	.	.	.	.	8.b/L	8.dd\L	.	.
.	.	.	.	.	.	.	.	.	.	.	16a/Jk	16cc\Jk	.	.
4r	4r	.	4r	.	.	.	.	.	.	.	4g/	4b\	.	.
!LO:LB:g=original	!	!	!	!	!	!	!	!	!	!	!	!	!	!
8.D\L	8.cc/L	.	8.aa\L	.	.	.	.	.	.	.	4d/	4a\	.	.
16D/Jk	16a/Jk	.	16ff#\Jk	.	.	.	.	.	.	.	.	.	.	.
=15	=15	=15	=15	=15	=15	=15	=15	=15	=15	=15	=15	=15	=15	=15
*	*	*	*	*	*	*	*	*	*	*	*	*tremolo	*	*
8GG/L	8d/ 8bL	.	8d/ 8b 8ggL	.	1r	.	1r	.	1r	.	8B/L	8g\L	1ryy	1ryy
8GG/	8d/ 8b	.	8d/ 8b 8gg	.	.	.	.	.	.	.	8B/	8g\	.	.
8GG/	8d/ 8b	.	8d/ 8b 8gg	.	.	.	.	.	.	.	8B/	8g\	.	.
8GG/J	8d/ 8bJ	.	8d/ 8b 8ggJ	.	.	.	.	.	.	.	8B/J	8g\J	.	.
*	*	*	*	*	*	*	*	*	*	*	*	*Xtremolo	*	*
*	*	*	*	*	*	*	*	*	*	*	*Xtremolo	*	*	*
4GG/	4d/ 4b	.	4d/ 4b 4gg	.	.	.	.	.	.	.	4G/	4g\	.	.
4r	4r	.	4r	.	.	.	.	.	.	.	4r	4r	.	.
!	!LO:LB:g=original	!	!	!	!	!	!	!	!	!	!LO:LB:g=original	!LO:LB:g=original	!	!
=16	=16	=16	=16	=16	=16	=16	=16	=16	=16	=16	=16	=16	=16	=16
4G/	4gg/	.	4bb\	.	4G/	Con-	4g/	Con-	(4b\	Con-	4g'/	4b/	1ryy	1ryy
4D/	4ff#/	.	4aa\	.	4D/	.	4f#/	.	4a\)	.	4d/	4a/	.	.
4E/	4b/	.	4gg/	.	4E/	-tem-	4B\	-tem-	4g\	-tem-	4B/	4g/	.	.
4r	4r	.	16r	.	4r	.	4r	.	4r	.	4r	4r	.	.
.	.	.	16gg\LL	.	.	.	.	.	.	.	.	.	.	.
.	.	.	16aa\	.	.	.	.	.	.	.	.	.	.	.
.	.	.	16bb/JJ	.	.	.	.	.	.	.	.	.	.	.
=17	=17	=17	=17	=17	=17	=17	=17	=17	=17	=17	=17	=17	=17	=17
4F#/	4aa\	.	4ccc\	.	4F#/	-pla-	4a\	-pla-	(4cc\	-pla-	4a/	4cc/	1ryy	1ryy
4G/	4gg\	.	4bb\	.	4G/	.	4g\	.	4b\)	.	4g\	4b/	.	.
4D/	4ff#\	.	4aa\	.	4D/	-re	4f#\	-re	4a\	-re	4d\	4a/	.	.
4r	4r	.	4r	.	4r	.	4r	.	4r	.	4r	4r	.	.
=18	=18	=18	=18	=18	=18	=18	=18	=18	=18	=18	=18	=18	=18	=18
4e\	4g/	.	4ccc\	.	4e\	et	4g\	et	(4cc\	et	1r	1r	1ryy	1ryy
!	!LO:SIC:s=4g	!	!	!	!	!	!	!	!	!	!	!	!	!
4d\	4f#/	.	4bb\	.	4d\	.	4g\	.	4b\)	.	.	.	.	.
4c\	4g/	.	4eee\	.	4c\	.	4g\	.	4ee\	mi-	.	.	.	.
8B\L	8g/L	.	8ddd\L	.	8B\L	mi-	8g\	mi-	8dd\L	.	.	.	.	.
8c\J	8g/J	.	8ccc\J	.	8c\J	.	8g\	.	8cc\J	.	.	.	.	.
!	!	!	!LO:LB:g=original	!	!	!	!	!	!	!	!	!	!	!
=19	=19	=19	=19	=19	=19	=19	=19	=19	=119	=19	=19	=19	=19	=19
4d\	4g/	.	4bb\	.	4d\	-ra-	4g\	-ra-	(4b\	-ra-	4g\	4b/	1ryy	1ryy
4D/	4f#/	.	4aa\	.	4D/	.	4f#\	.	4a\)	.	4d\	4a/	.	.
4G\	4b/	.	4gg\	.	4G/	-re	4B\	-re	4g\	-re	4G/	4g/	.	.
4r	4r	.	4r	.	4r	.	4r	.	4r	.	4r	4r	.	.
!	!	!	!	!	!LO:LB:g=original	!	!	!	!LO:LB:g=original	!	!	!	!	!
=20	=20	=20	=20	=20	=20	=20	=20	=20	=20	=20	=20	=20	=20	=20
!	!	!	!	!LO:DY:t=p&colon;	!	!	!	!	!	!	!	!	!	!
4e\	4g/	.	4ccc\	p	4e\	e-	4g\	e-	4cc\	e-	1r	1r	1ryy	1ryy
!	!LO:SIC:s=4g	!	!	!	!	!	!	!	!	!	!	!	!	!
4d\	4f#/	.	4bb\	.	4d\	-jus	4g\	-jus	4b\	-jus	.	.	.	.
4c\	4g/	.	4eee\	.	4c\	cel-	4g\	cel-	4ee\	cel-	.	.	.	.
8B\L	8g/L	.	8ddd\L	.	8B\L	-si-	8g\L	-si-	8dd\L	-si-	.	.	.	.
8c\J	8g/J	.	8ccc\J	.	8c\J	.	8g\J	.	8cc\J	.	.	.	.	.
!LO:LB:g=original	!	!	!	!	!	!	!LO:LB:g=original	!	!	!	!	!	!	!
=21	=21	=21	=21	=21	=21	=21	=21	=21	=21	=21	=21	=21	=21	=21
4d\	4g/	.	4bb/	.	4d\	-tu-	4g\	-tu-	4b\	-tu-	4g\	4b\	1ryy	1ryy
4D/	4f#/	.	4aa\	.	4D/	-di-	4f#\	-di-	4a\	-di-	4d\	4a\	.	.
4G/	4b/	.	4gg\	.	4G/	-nem	4B\	-nem	4g\	-nem	8B/L	8.g/L	.	.
.	.	.	.	.	.	.	.	.	.	.	8B/J	.	.	.
.	.	.	.	.	.	.	.	.	.	.	.	16g/Jk	.	.
4GG/	4r	.	4r	.	4r	.	4r	.	4r	.	4G/	4g/	.	.
=22	=22	=22	=22	=22	=22	=22	=22	=22	=22	=22	=22	=22	=22	=22
!	!	!	!	!	!	!	!	!	!	!	!LO:TX:a:t=26	!LO:TX:a:t=26	!	!
8G\L	16g/LL	.	16b\LL	.	4G\	e-	4g\	e-	4b\	e-	1r	1r	1ryy	1ryy
.	16g/	.	16b\	.	.	.	.	.	.	.	.	.	.	.
8G\	16g/	.	16b\	.	.	.	.	.	.	.	.	.	.	.
.	16g/JJ	.	16b\JJ	.	.	.	.	.	.	.	.	.	.	.
8G\	16b/LL	.	16ee/LL	.	8G\	-jus	8b\	-jus	4ee\	-jus	.	.	.	.
.	16b/	.	16ee/	.	.	.	.	.	.	.	.	.	.	.
8G\J	16b/	.	16ee/	.	8G\	.	8b\	.	.	.	.	.	.	.
.	16b/JJ	.	16ee/JJ	.	.	.	.	.	.	.	.	.	.	.
!	!	!	!	!	!LO:SIC:s=4F#	!	!	!	!	!	!	!	!	!
8F#\L	16a/LL	.	16cc#X/LL	.	4G/	cel-	4a\	cel-	4cc#X\	cel-	.	.	.	.
.	16a/	.	16cc#X/	.	.	.	.	.	.	.	.	.	.	.
8F#\	16a/	.	16cc#X/	.	.	.	.	.	.	.	.	.	.	.
.	16a/JJ	.	16cc#X/JJ	.	.	.	.	.	.	.	.	.	.	.
8F#\	16a/LL	.	16dd\LL	.	4F#/	-si-	4a\	-si-	4dd\	-si-	.	.	.	.
.	16a/	.	16dd\	.	.	.	.	.	.	.	.	.	.	.
8F#\J	16a/	.	16dd\	.	.	.	.	.	.	.	.	.	.	.
.	16a/JJ	.	16dd\JJ	.	.	.	.	.	.	.	.	.	.	.
=23	=23	=23	=23	=23	=23	=23	=23	=23	=23	=23	=23	=23	=23	=23
*Xtremolo	*	*	*	*	*	*	*	*	*	*	*	*	*	*
8C#X\L	16ee/LL	.	16gg\LL	.	4c#X\	-tu-	4ee\	-tu-	4gg\	-tu-	1r	1r	1ryy	1ryy
.	16ee/	.	16gg\	.	.	.	.	.	.	.	.	.	.	.
8C#\	16ee/	.	16gg\	.	.	.	.	.	.	.	.	.	.	.
.	16ee/JJ	.	16gg\JJ	.	.	.	.	.	.	.	.	.	.	.
8D\	16dd/LL	.	16ff#/LL	.	4d\	-di-	4dd\	-di-	4ff#\	-di-	.	.	.	.
.	16dd/	.	16ff#/	.	.	.	.	.	.	.	.	.	.	.
8D\J	16dd/	.	16ff#/	.	.	.	.	.	.	.	.	.	.	.
.	16dd/JJ	.	16ff#/JJ	.	.	.	.	.	.	.	.	.	.	.
!LO:TX:t=P:problem=mixed beam	!	!	!	!	!	!	!	!	!	!	!	!	!	!
8AA/L	8cc#X\L	.	8ee/L	.	4A/	-nem	4cc#X\	-nem	4ee\	-nem	.	.	.	.
8AA/	16cc#/L	.	16ee/L	.	.	.	.	.	.	.	.	.	.	.
.	16cc#/JJ	.	16ee/JJ	.	.	.	.	.	.	.	.	.	.	.
8A/	4cc#/	.	4ee/	.	4r	.	4r	.	4r	.	.	.	.	.
8G/J	.	.	.	.	.	.	.	.	.	.	.	.	.	.
=24	=24	=24	=24	=24	=24	=24	=24	=24	=24	=24	=24	=24	=24	=24
4F#\	4a/	.	4dd/	.	4F#\	dic	4a\	dic	4dd\	dic	1r	1r	1ryy	1ryy
*	*Xtremolo	*	*	*	*	*	*	*	*	*	*	*	*	*
8F#\L	8a/L	.	8dd/L	.	8F#\	fe-	8a\L	fe-	4dd\	fe-	.	.	.	.
8F#\J	8a/J	.	8dd/J	.	8F#\	.	8a\J	.	.	.	.	.	.	.
!	!LO:LB:g=original	!	!	!	!	!	!	!	!	!	!	!	!	!
8F#\L	8a/L	.	(8dd#X/L	.	8F#\L	-li-	8a\L	-li-	8dd#X\L	-li-	.	.	.	.
8G\J	8b/J	.	8ee/J	.	8G\J	.	8b\J	.	8ee\J	.	.	.	.	.
4G\	4b/	.	4ee/)	.	4G/	-cem	4b\	-cem	4ee\	-cem	.	.	.	.
!	!	!	!	!	!LO:LB:g=original	!	!	!	!LO:LB:g=original	!	!	!	!	!
=25	=25	=25	=25	=25	=25	=25	=25	=25	=25	=25	=25	=25	=25	=25
4A/	4cc#X/	.	4ff#/	.	4A/	Ge-	4cc#X\	Ge-	4ff#\	ge-	1r	1r	1ryy	1ryy
8A\L	8cc#/L	.	8ff#\L	.	8A/	-ni-	8cc#\L	-ni-	4ff#\	-ni-	.	.	.	.
8A\J	8cc#/J	.	8ff#/J	.	8A/	.	8cc#\J	.	.	.	.	.	.	.
8A\L	8cc/\L	.	8ff#/L	.	8A\L	-tri-	8cc#\L	-tri-	8ff#\L	-tri-	.	.	.	.
8B\J	8dd/J	.	8gg/J	.	8B\J	.	8dd\J	.	8gg\J	.	.	.	.	.
4B\	4dd/	.	4gg/	.	4B/	-cem	4dd\	-cem	4gg\	-cem	.	.	.	.
=26	=26	=26	=26	=26	=26	=26	=26	=26	=26	=26	=26	=26	=26	=26
*	*tremolo	*	*	*	*	*	*	*	*	*	*	*	*	*
8AA/L	8.ee/L	.	8.gg/L	.	4A/	dic	4cc#X\	dic	8.gg\L	dic	1r	1r	1ryy	1ryy
8AA/	.	.	.	.	.	.	.	.	.	.	.	.	.	.
.	32dd/LL	.	32ff#/LL	.	.	.	.	.	32ff#\LL	.	.	.	.	.
.	32ee/JJJ	.	32gg/JJJ	.	.	.	.	.	32gg\JJJ	.	.	.	.	.
8C#X/	8ff#/L	.	8aa/L	.	4c#X\	.	4ee\	be-	8aa\L	be-	.	.	.	.
8C#/J	8ee/J	.	8gg/J	.	.	.	.	.	8gg\J	.	.	.	.	.
!	!	!	!LO:LB:g=original	!	!	!	!	!	!	!	!	!	!	!
!	!	!	!LO:TX:a:t=fis	!	!	!	!	!	!	!	!	!	!	!
8D\L	16dd\LL	.	16ff#\LL	.	4d\	.	4dd\	-a-	4ff#\	-a-	.	.	.	.
.	16dd\	.	16ff#\	.	.	.	.	.	.	.	.	.	.	.
8D\	16dd\	.	16ff#\	.	.	.	.	.	.	.	.	.	.	.
.	16dd\JJ	.	16ff#\JJ	.	.	.	.	.	.	.	.	.	.	.
8F#\	16ff#\LL	.	16ddd\LL	.	4F#/	be-	4f#/	-tam	4aa\	-tam	.	.	.	.
.	16ff#\	.	16ddd\	.	.	.	.	.	.	.	.	.	.	.
8F#\J	16ff#\	.	16ddd\	.	.	.	.	.	.	.	.	.	.	.
.	16ff#\JJ	.	16ddd\JJ	.	.	.	.	.	.	.	.	.	.	.
!	!	!	!	!	!	!	!LO:LB:g=original	!	!	!	!	!	!	!
=27	=27	=27	=27	=27	=27	=27	=27	=27	=27	=27	=27	=27	=27	=27
*tremolo	*	*	*	*	*	*	*	*	*	*	*	*	*	*
8G\L	16g/LL	.	16bb\LL	.	4G/	-a-	4g\	vir-	(4b\	vir-	1r	1r	1ryy	1ryy
.	16g/	.	16bb\	.	.	.	.	.	.	.	.	.	.	.
8G\	16g/	.	16bb\	.	.	.	.	.	.	.	.	.	.	.
.	16g/JJ	.	16bb\JJ	.	.	.	.	.	.	.	.	.	.	.
8G\	16b/LL	.	16gg\LL	.	4E/	-tam	4b\	.	4gg\)	.	.	.	.	.
.	16b/	.	16gg\	.	.	.	.	.	.	.	.	.	.	.
8G\J	16b/	.	16gg\	.	.	.	.	.	.	.	.	.	.	.
.	16b/JJ	.	16gg\JJ	.	.	.	.	.	.	.	.	.	.	.
8A\L	16ff#\LL	.	16ddd\LL	.	2A/	vir-	2dd\	.	2ff#\	.	.	.	.	.
.	16ff#\	.	16ddd\	.	.	.	.	.	.	.	.	.	.	.
8A\	16ff#\	.	16ddd\	.	.	.	.	.	.	.	.	.	.	.
.	16ff#\	.	16ddd\	.	.	.	.	.	.	.	.	.	.	.
8A\	16ff#\	.	16ddd\	.	.	.	.	.	.	.	.	.	.	.
.	16ff#\	.	16ddd\	.	.	.	.	.	.	.	.	.	.	.
8A\J	16ff#\	.	16ddd\	.	.	.	.	.	.	.	.	.	.	.
.	16ff#\JJ	.	16ddd\JJ	.	.	.	.	.	.	.	.	.	.	.
!LO:LB:g=original	!	!	!	!	!	!	!	!	!	!	!	!	!	!
=28	=28	=28	=28	=28	=28	=28	=28	=28	=28	=28	=28	=28	=28	=28
!	!	!	!	!	!	!	!LO:SIC:s=2cc#	!	!	!	!	!	!	!
2AA/	16ee\LL	.	16ddd\LL	.	2A/	-gi-	2cc\	-gi-	2ee\	-gi-	1r	1r	1ryy	1ryy
.	16ee\	.	16ddd\	.	.	.	.	.	.	.	.	.	.	.
.	16ee\	.	16ddd\	.	.	.	.	.	.	.	.	.	.	.
.	16ee\	.	16ddd\JJ	.	.	.	.	.	.	.	.	.	.	.
.	16ee\	.	16ccc#X/LL	.	.	.	.	.	.	.	.	.	.	.
.	16ee\	.	16ccc#X/	.	.	.	.	.	.	.	.	.	.	.
.	16ee\	.	16ccc#X/	.	.	.	.	.	.	.	.	.	.	.
.	16ee\JJ	.	16ccc#X/JJ	.	.	.	.	.	.	.	.	.	.	.
4D/	4ff#\	.	4ddd\	.	4F#/	-nem	4f#\	-nem	4dd\	-nem.	.	.	.	.
*Xtremolo	*	*	*	*	*	*	*	*	*	*	*	*	*	*
8d`\L	4r	.	4r	.	8d\	ip-	4r	.	4r	.	.	.	.	.
8d`\J	.	.	.	.	8d\	-sam	.	.	.	.	.	.	.	.
=29	=29	=29	=29	=29	=29	=29	=29	=29	=29	=29	=29	=29	=29	=29
!	!	!	!LO:TX:a:t=1.	!	!	!	!	!	!	!	!	!	!	!
4B-X`\	1r	.	1r	.	4B-X\	co-	1r	.	1r	.	1r	1r	1ryy	1ryy
4A`\	.	.	.	.	4A\	.	.	.	.	.	.	.	.	.
2G#X`\	.	.	.	.	2G#X\	.	.	.	.	.	.	.	.	.
!	!	!	!	!	!	!	!	!	!LO:LB:g=original	!	!	!	!	!
=30	=30	=30	=30	=30	=30	=30	=30	=30	=30	=30	=30	=30	=30	=30
4A\	16A/LL	.	4r	.	4A\	-le	4r	.	4r	.	1r	1r	1ryy	1ryy
.	16A/	.	.	.	.	.	.	.	.	.	.	.	.	.
.	16A/	.	.	.	.	.	.	.	.	.	.	.	.	.
.	16A/	.	.	.	.	.	.	.	.	.	.	.	.	.
!	!	!	!LO:TX:t=P:problem=mixed beam	!	!	!	!	!	!	!	!	!	!	!
!	!	!	!	!LO:DY:t=mf&colon;	!	!	!	!	!	!	!	!	!	!
8C#X/L	16A/	.	8a\L	mf	4C#X\	ut	4a/	i-	8a\	i-	.	.	.	.
.	16A/	.	.	.	.	.	.	.	.	.	.	.	.	.
8AA/J	16A/	.	8gg/J	.	.	.	.	.	8gg\	-psam	.	.	.	.
.	16A/JJ	.	.	.	.	.	.	.	.	.	.	.	.	.
8D/L	16A/LL	.	16ff#/LL	.	4D/	.	4a\	psam	16ff#\LL	co-	.	.	.	.
.	16A/	.	16ee/	.	.	.	.	.	16ee\	.	.	.	.	.
8AA/	16A/	.	16ff#/	.	.	.	.	.	16ff#\	.	.	.	.	.
.	16A/	.	16gg/JJ	.	.	.	.	.	16gg\JJ	.	.	.	.	.
8F#/	16A/	.	8aa\L	.	4F#/	de	8a\L	co-	8aa\L	-le	.	.	.	.
.	16A/	.	.	.	.	.	.	.	.	.	.	.	.	.
8AA/J	16A/	.	8ff#\J	.	.	.	8a\J	.	8ff#\J	.	.	.	.	.
.	16A/JJ	.	.	.	.	.	.	.	.	.	.	.	.	.
!	!	!	!	!	!LO:LB:g=original	!	!	!	!	!	!	!	!	!
=31	=31	=31	=31	=31	=31	=31	=31	=31	=31	=31	=31	=31	=31	=31
8E/L	4.A/	.	8ee\	.	4E\	mo-	8a\	-le	(8ee\	ut	1r	1r	1ryy	1ryy
8AA/	.	.	4dd/	.	.	.	4a/	.	4dd\)	.	.	.	.	.
8G/	.	.	.	.	4G/	.	.	.	.	.	.	.	.	.
!	!	!	!LO:SIC:s=8cc#	!	!	!	!	!	!	!	!	!	!	!
8AA/J	8g/	.	8cc/	.	.	.	8a/	ut	8cc#X\	de	.	.	.	.
8F#/L	16f#/LL	.	4dd/	.	4F#/	.	4a/	de	4dd\	mo-	.	.	.	.
.	16e/	.	.	.	.	.	.	.	.	.	.	.	.	.
8AA/	16f#/	.	.	.	.	.	.	.	.	.	.	.	.	.
.	16g/JJ	.	.	.	.	.	.	.	.	.	.	.	.	.
!	!	!	!LO:TX:t=P:problem=mixed beam	!	!	!	!	!	!	!	!	!	!	!
8C#X/	8a/L	.	8a\L	.	4C#X/	-le	8a/L	mo-	8a\L	-le	.	.	.	.
!	!LO:SIC:s=8c#	!	!	!	!	!	!	!	!	!	!	!	!	!
8AA/J	8c/J	.	8gg/J	.	.	.	8a/J	.	8gg\J	.	.	.	.	.
=32	=32	=32	=32	=32	=32	=32	=32	=32	=32	=32	=32	=32	=32	=32
8D/L	16d/LL	.	16ff#/LL	.	4D/	ut	8a\	-le	16ff#\LL	cri-	1r	1r	1ryy	1ryy
.	16A/	.	16ee/	.	.	.	.	.	16ee\	.	.	.	.	.
8AA/	16A/	.	16ff#/	.	.	.	4a\	.	16ff#\	.	.	.	.	.
.	16A/JJ	.	16gg/JJ	.	.	.	.	.	16gg\JJ	.	.	.	.	.
!	!	!	!	!	!	!	!	!	!	!	!	!	!	!
8F#/	16A/LL	.	8aa\L	.	4F#\	de	.	.	8aa\	-mi-	.	.	.	.
.	16A/	.	.	.	.	.	.	.	.	.	.	.	.	.
!	!	!	!	!	!	!	!	!	!LO:SIC:l:s=num	!	!	!	!	!
8AA/J	16A/	.	8ff#/J	.	.	.	8a/	ut	8ff#\	-nam	.	.	.	.
.	16A/JJ	.	.	.	.	.	.	.	.	.	.	.	.	.
!	!LO:LB:g=original	!	!	!	!	!	!	!	!	!	!	!	!	!
8E/L	4.A/	.	8ee/	.	4E\	mo-	4a/	de	8ee\	te	.	.	.	.
8AA/	.	.	4dd/	.	.	.	.	.	4dd\	li-	.	.	.	.
8G/	.	.	.	.	4A/	.	8a/L	mo-	.	.	.	.	.	.
8AA/J	8g/	.	8cc#X/	.	.	.	8a/J	.	8cc#X\	-be-	.	.	.	.
!	!	!	!LO:LB:g=original	!	!	!	!	!	!	!	!	!	!	!
=33	=33	=33	=33	=33	=33	=33	=33	=33	=33	=33	=33	=33	=33	=33
!	!	!	!	!	!	!	!	!	!LO:TX:t=P:problem=cezura u dołu systemu	!	!	!	!	!
8F#/L	16f#/LL	.	(8dd\L	.	8F#\L	-le	8d\	-le	8dd,\	-ret	1r	1r	1ryy	1ryy
.	16d/	.	.	.	.	.	.	.	.	.	.	.	.	.
8B\	16d/	.	16ddd\L	.	8B\	hanc	4d/	cri-	8dd\	hanc	.	.	.	.
.	16d/JJ	.	16dd\JJ	.	.	.	.	.	.	.	.	.	.	.
!	!	!	!	!	!	!	!	!	!LO:SIC:l:s=ap	!	!	!	!	!
8A\	16d/LL	.	16ccc#X\LL	.	8A\	ap-	.	.	8cc#X\	a-	.	.	.	.
.	16d/	.	16dd\	.	.	.	.	.	.	.	.	.	.	.
8G\J	16d/	.	16bb\	.	8G\J	-pel-	8d/	.	8b\	-pel-	.	.	.	.
.	16d/JJ	.	16dd\JJ)	.	.	.	.	.	.	.	.	.	.	.
!	!	!	!	!	!	!	!	!	!LO:LB:g=original	!	!	!	!	!
8F#/L	16d/LL	.	16aa\LL	.	8F#\L	-la	8d/	-mi-	8a\	-la	.	.	.	.
.	16d/	.	16dd\	.	.	.	.	.	.	.	.	.	.	.
8B\	16d/	.	16ddd\	.	8B\	ne	4d/	-num	8dd\	ne	.	.	.	.
.	16d/	.	16dd/JJ	.	.	.	.	.	.	.	.	.	.	.
8A\	16d/	.	16ccc#X/LL	.	8A\	pro-	.	.	8cc#X\	pro-	.	.	.	.
.	16d/	.	16dd/	.	.	.	.	.	.	.	.	.	.	.
8G/J	16d/	.	16bb/	.	8G/J	-cel-	8d/	cri-	8b\	-cel-	.	.	.	.
.	16d/JJ	.	16dd/JJ	.	.	.	.	.	.	.	.	.	.	.
!	!	!	!	!	!	!	!LO:LB:g=original	!	!	!	!	!	!	!
=34	=34	=34	=34	=34	=34	=34	=34	=34	=34	=34	=34	=34	=34	=34
*tremolo	*	*	*	*	*	*	*	*	*	*	*	*	*	*
8F#\L	16d/LL	.	16aa\LL	.	8F#\L	-la	8d/	-mi-	8a\	-la	1r	1r	1ryy	1ryy
.	16d/	.	16dd/	.	.	.	.	.	.	.	.	.	.	.
8B/	16d/	.	(16ddd/	.	8B\	vi-	4d/	-num	8dd\L	vi-	.	.	.	.
.	16d/	.	16dd/JJ	.	.	.	.	.	.	.	.	.	.	.
8A/	16d/	.	16cccn\LL)	.	8A\	-ti-	.	.	8ccn\J	.	.	.	.	.
.	16d/	.	16dd/	.	.	.	.	.	.	.	.	.	.	.
8F#/J	16d/	.	16aa#X/	.	8F#\J	-o-	8d/	cri-	8a\	-ti-	.	.	.	.
.	16d/JJ	.	16dd/JJ	.	.	.	.	.	.	.	.	.	.	.
8G\L	16d/LL	.	16bb/LL	.	2G\	-rum	8d/	-mi-	4b\	-o-	.	.	.	.
.	16d/	.	16bb/	.	.	.	.	.	.	.	.	.	.	.
8G\	16d/	.	16bb/	.	.	.	4d/	-num	.	.	.	.	.	.
.	16d/	.	16bb/JJ	.	.	.	.	.	.	.	.	.	.	.
8G\	16d/	.	16ccc#X/LL	.	.	.	.	.	8cc#X\L	-rum	.	.	.	.
.	16d/	.	16ccc#/	.	.	.	.	.	.	.	.	.	.	.
8G\J	16d/	.	16ddd/	.	.	.	8d/	cri-	8dd\J	.	.	.	.	.
.	16d/JJ	.	16ddd/JJ	.	.	.	.	.	.	.	.	.	.	.
!LO:LB:g=original	!	!	!	!	!	!	!	!	!	!	!	!	!	!
=35	=35	=35	=35	=35	=35	=35	=35	=35	=35	=35	=35	=35	=35	=35
8A\L	16ff#\LL	.	16ddd\LL	.	2A\	Su-	2f#\	li-	2dd\	su-	1r	1r	1ryy	1ryy
.	16ff#\	.	16ddd\	.	.	.	.	.	.	.	.	.	.	.
8A\	16ff#\	.	16ddd\	.	.	.	.	.	.	.	.	.	.	.
.	16ff#\	.	16ddd\	.	.	.	.	.	.	.	.	.	.	.
8A\	16ff#\	.	16ddd\	.	.	.	.	.	.	.	.	.	.	.
.	16ff#\	.	16ddd\	.	.	.	.	.	.	.	.	.	.	.
8A\J	16ff#\	.	16ddd\	.	.	.	.	.	.	.	.	.	.	.
.	16ff#\JJ	.	16ddd\JJ	.	.	.	.	.	.	.	.	.	.	.
8AA/L	16ee\LL	.	16ccc#X\LL	.	2A\	-per-	2e\	-be-	2cc#X\	-pe-	.	.	.	.
.	16ee\	.	16ccc#X\	.	.	.	.	.	.	.	.	.	.	.
8AA/	16ee\	.	16ccc#X\	.	.	.	.	.	.	.	.	.	.	.
.	16ee\	.	16ccc#X\	.	.	.	.	.	.	.	.	.	.	.
8AA/	16ee\	.	16ccc#X\	.	.	.	.	.	.	.	.	.	.	.
.	16ee\	.	16ccc#X\	.	.	.	.	.	.	.	.	.	.	.
8AA/J	16ee\	.	16ccc#X\	.	.	.	.	.	.	.	.	.	.	.
.	16ee\JJ	.	16ccc#X\JJ	.	.	.	.	.	.	.	.	.	.	.
=36	=36	=36	=36	=36	=36	=36	=36	=36	=36	=36	=36	=36	=36	=36
8D/L	16f#/LL	.	8dd/L	.	8F#/L	-et	8d/	-ret	8dd\	-ret	1r	1r	1ryy	1ryy
.	16d/	.	.	.	.	.	.	.	.	.	.	.	.	.
8B/	16d/	.	16ddd/L	.	8B/	hanc	4d/	i-	8dd\	hanc	.	.	.	.
.	16d/JJ	.	16dd/JJ	.	.	.	.	.	.	.	.	.	.	.
!	!	!	!	!	!	!	!	!	!LO:SIC:l:s=ap	!	!	!	!	!
8A\	16d/LL	.	16ccc#X/LL	.	8A/	ap-	.	.	8cc#X\	a-	.	.	.	.
.	16d/	.	16dd/	.	.	.	.	.	.	.	.	.	.	.
8G/J	16d/	.	16bb/	.	8G/J	-pel-	8d/	-psam	8b\	-pel-	.	.	.	.
.	16d/JJ	.	16dd/JJ	.	.	.	.	.	.	.	.	.	.	.
8F#/L	16d/LL	.	16aa/LL	.	8F#/L	-la	8d/	.	8a\	-la	.	.	.	.
.	16d/	.	16dd/	.	.	.	.	.	.	.	.	.	.	.
8B\	16d/	.	16ddd/	.	8B/	ne	4d/	-co-	8dd\	ne	.	.	.	.
.	16d/	.	16dd/JJ	.	.	.	.	.	.	.	.	.	.	.
8A\	16d/	.	16ccc#X/LL	.	8A/	pro-	.	.	8cc#\	pro-	.	.	.	.
.	16d/	.	16dd/	.	.	.	.	.	.	.	.	.	.	.
8G\J	16d/	.	16bb/	.	8G/J	-cel-	8d/	-le	8b\	-cel-	.	.	.	.
.	16d/JJ	.	16dd/JJ	.	.	.	.	.	.	.	.	.	.	.
!	!	!	!LO:LB:g=original	!	!	!	!	!	!LO:LB:g=original	!	!	!	!	!
=37	=37	=37	=37	=37	=37	=37	=37	=37	=37	=37	=37	=37	=37	=37
8F#\L	16d/LL	.	16aa\LL	.	8F#/L	-la	8d/	ut	8a\	-la	1r	1r	1ryy	1ryy
.	16d/	.	16dd\	.	.	.	.	.	.	.	.	.	.	.
!	!	!	!LO:TX:a:t=d	!	!	!	!	!	!	!	!	!	!	!
8B\	16d/	.	16ddd\	.	8B/	.	4d/	.	8dd\L	vi-	.	.	.	.
.	16d/	.	16dd\JJ	.	.	.	.	.	.	.	.	.	.	.
!	!	!	!LO:TX:a:t=cis	!	!	!	!	!	!LO:SIC:s=8cc#	!	!	!	!	!
8A\	16d/	.	16ccc#X\LL	.	8A/	vi-	.	.	8cc\J	.	.	.	.	.
.	16d/	.	16dd\	.	.	.	.	.	.	.	.	.	.	.
8G\J	16d/	.	16bb\	.	8G/J	.	8d/	de	8b\	-ti-	.	.	.	.
.	16d/JJ	.	16dd\JJ	.	.	.	.	.	.	.	.	.	.	.
!	!	!	!	!	!LO:LB:g=original	!	!	!	!	!	!	!	!	!
8F#\L	16d/LL	.	16aa\LL	.	8F#\L	.	8d/	.	8a\L	-o-	.	.	.	.
.	16d/	.	16dd\	.	.	.	.	.	.	.	.	.	.	.
8B\	16d/	.	16ddd\	.	8B\	.	4d/	mo-	8dd\J	.	.	.	.	.
.	16d/	.	16dd/JJ	.	.	.	.	.	.	.	.	.	.	.
!	!	!	!	!	!	!	!	!	!LO:SIC:s=8cc#	!	!	!	!	!
8A\	16d/	.	16ccc#/LL	.	8A\	.	.	.	8ccn\L	-rum	.	.	.	.
.	16d/	.	16dd/	.	.	.	.	.	.	.	.	.	.	.
8F#/J	16d/	.	16aa#X\	.	8F#\J	.	8d/	-le	8a\J	.	.	.	.	.
.	16d/JJ	.	16dd/JJ	.	.	.	.	.	.	.	.	.	.	.
=38	=38	=38	=38	=38	=38	=38	=38	=38	=38	=38	=38	=38	=38	=38
8G\L	16d/LL	.	16bb/LL	.	4G\	.	8d/	cri-	4b\	vi-	1r	1r	1ryy	1ryy
.	16d/	.	16bb/	.	.	.	.	.	.	.	.	.	.	.
8G\	16d/	.	16bb/	.	.	.	4d/	-mi-	.	.	.	.	.	.
.	16d/	.	16bb/JJ	.	.	.	.	.	.	.	.	.	.	.
8G\	16d/	.	16bb/LL	.	4G\	-ti-	.	.	4b\	-ti-	.	.	.	.
.	16d/	.	16bb/	.	.	.	.	.	.	.	.	.	.	.
8G\J	16d/	.	16bb/	.	.	.	8d/	.	.	.	.	.	.	.
.	16d/JJ	.	16bb/JJ	.	.	.	.	.	.	.	.	.	.	.
8A\L	16d/LL	.	16ccc#X/LL	.	4G\	-o-	8d/	-num	4cc#X\	-o-	.	.	.	.
.	16d/	.	16ccc#X/	.	.	.	.	.	.	.	.	.	.	.
8A\J	16d/	.	16ccc#X/	.	.	.	4d/	.	.	.	.	.	.	.
.	16d/	.	16ccc#X/JJ	.	.	.	.	.	.	.	.	.	.	.
8B\L	16d/	.	16ddd/LL	.	4F#/	-rum	.	.	4dd\	-rum	.	.	.	.
.	16d/	.	16ddd/	.	.	.	.	.	.	.	.	.	.	.
8B\J	16d/	.	16ddd/	.	.	.	8d/	te	.	.	.	.	.	.
.	16d/JJ	.	16ddd/JJ	.	.	.	.	.	.	.	.	.	.	.
=39	=39	=39	=39	=39	=39	=39	=39	=39	=39	=39	=39	=39	=39	=39
8A\L	16a\ 16ff#LL	.	16ddd\LL	.	2A\	su-	2f#\	li-	2dd\	Su-	1r	1r	1ryy	1ryy
.	16a\ 16ff#	.	16ddd\	.	.	.	.	.	.	.	.	.	.	.
8A\	16a\ 16ff#	.	16ddd\	.	.	.	.	.	.	.	.	.	.	.
.	16a\ 16ff#	.	16ddd\	.	.	.	.	.	.	.	.	.	.	.
8A\	16a\ 16ff#	.	16ddd\	.	.	.	.	.	.	.	.	.	.	.
.	16a\ 16ff#	.	16ddd\	.	.	.	.	.	.	.	.	.	.	.
8A\J	16a\ 16ff#	.	16ddd\	.	.	.	.	.	.	.	.	.	.	.
.	16a\ 16ff#JJ	.	16ddd\JJ	.	.	.	.	.	.	.	.	.	.	.
8AA/L	16a\ 16eeLL	.	16ccc#X\LL	.	2A\	-pe-	2e\	-be-	2cc#X\	-pe-	.	.	.	.
.	16a\ 16ee	.	16ccc#X\	.	.	.	.	.	.	.	.	.	.	.
8AA/	16a\ 16ee	.	16ccc#X\	.	.	.	.	.	.	.	.	.	.	.
.	16a\ 16ee	.	16ccc#X\	.	.	.	.	.	.	.	.	.	.	.
8AA/	16a\ 16ee	.	16ccc#X\	.	.	.	.	.	.	.	.	.	.	.
.	16a\ 16ee	.	16ccc#X\	.	.	.	.	.	.	.	.	.	.	.
8AA/J	16a\ 16ee	.	16ccc#X\	.	.	.	.	.	.	.	.	.	.	.
.	16a\ 16eeJJ	.	16ccc#X\JJ	.	.	.	.	.	.	.	.	.	.	.
!	!	!	!	!	!	!	!LO:LB:g=original	!	!	!	!	!	!	!
=40	=40	=40	=40	=40	=40	=40	=40	=40	=40	=40	=40	=40	=40	=40
*Xtremolo	*	*	*	*	*	*	*	*	*	*	*	*	*	*
8D\L	8a/L 8ff#	.	8ddd/L	.	4D/	-ret	4f#\	-ret	4dd\	-ret	1r	1r	1ryy	1ryy
16D\L	16a/L 16ff#	.	16ddd/L	.	.	.	.	.	.	.	.	.	.	.
16D\JJ	16a/JJ 16ff#	.	16ddd/JJ	.	.	.	.	.	.	.	.	.	.	.
8D\L	8a/L 8ff#	.	8ddd/L	.	4r	.	4r	.	4r	.	.	.	.	.
8D\J	8a/J 8ff#	.	8ddd/J	.	.	.	.	.	.	.	.	.	.	.
4D\	4a/ 4ff#	.	4ddd\	.	2r	.	2r	.	4r	.	.	.	.	.
4r	4r	.	4r	.	.	.	.	.	8dd\	hanc	.	.	.	.
.	.	.	.	.	.	.	.	.	8dd\	ap-	.	.	.	.
!	!LO:LB:g=original	!	!	!	!	!	!	!	!	!	!	!	!	!
=41	=41	=41	=41	=41	=41	=41	=41	=41	=41	=41	=41	=41	=41	=41
!	!	!	!LO:TX:a:t=1.	!	!	!	!	!	!	!	!	!	!	!
1r	1r	.	1r	.	1r	.	1r	.	4ff#X\	-pel-	1r	1r	1ryy	1ryy
.	.	.	.	.	.	.	.	.	(8ffn\L	-la	.	.	.	.
.	.	.	.	.	.	.	.	.	8ff\J)	.	.	.	.	.
!	!	!	!	!	!	!	!	!	!LO:LB:g=original	!	!	!	!	!
!	!	!	!	!	!	!	!	!	!LO:TX:t=P:problem=druga część taktu słabo czytelna	!	!	!	!	!
.	.	.	.	.	.	.	.	.	8qqee/	.	.	.	.	.
.	.	.	.	.	.	.	.	.	4dd\	.	.	.	.	.
.	.	.	.	.	.	.	.	.	8qqcc/	.	.	.	.	.
.	.	.	.	.	.	.	.	.	4b\	.	.	.	.	.
=42	=42	=42	=42	=42	=42	=42	=42	=42	=42	=42	=42	=42	=42	=42
.	.	.	.	.	.	.	.	.	8qqf#/	.	.	.	.	.
4r	4r	.	4r	.	4r	.	4r	.	4e#X\	-cel-	1r	1r	1ryy	1ryy
(8E\L	(8g#X/L	.	4dd/	.	(8E/L	hanc	(8g#X/L	hanc	4dd\	-la	.	.	.	.
8Fn\J)	8a/)	.	.	.	8Fn/)	ap-	8a/J)	.	.	.	.	.	.	.
(8E\L	(8g#/	.	4dd/	.	(8E/	-pel-	(8g#/L	ap-	4dd\	vi-	.	.	.	.
8F\)	8a/J)	.	.	.	8F/J)	.	8a/J)	.	.	.	.	.	.	.
(8E\	(8g#/L	.	4dd/	.	8E/L	-la	(8g#/L	-pel-	4dd\	-ti-	.	.	.	.
8G#X/J)	8b/J)	.	.	.	8G#X/J	.	8b/J)	.	.	.	.	.	.	.
!LO:LB:g=original	!	!	!	!	!	!	!	!	!	!	!	!	!	!
=43	=43	=43	=43	=43	=43	=43	=43	=43	=43	=43	=43	=43	=43	=43
8A\L	16a\LL	.	16ccn/LL	.	4A/	.	4a\	-la	(4cc\	-o-	1r	1r	1ryy	1ryy
.	16a\	.	16ccn/	.	.	.	.	.	.	.	.	.	.	.
8A\	16a\	.	16ccn/	.	.	.	.	.	.	.	.	.	.	.
.	16a\JJ	.	16ccn/JJ	.	.	.	.	.	.	.	.	.	.	.
8C/	16cc\LL	.	16aa/LL	.	4C/	hanc	4a/	hanc	4aa\)	.	.	.	.	.
.	16cc\	.	16aa/	.	.	.	.	.	.	.	.	.	.	.
8C/J	16cc\	.	16aa/	.	.	.	.	.	.	.	.	.	.	.
.	16cc\JJ	.	16aa/JJ	.	.	.	.	.	.	.	.	.	.	.
8D\L	16dd\LL	.	16ffn/LL	.	4D/	ap-	4a\	.	(4ffn\	-rum	.	.	.	.
.	16dd\	.	16ffn/	.	.	.	.	.	.	.	.	.	.	.
8D/	16dd\	.	16ffn/	.	.	.	.	.	.	.	.	.	.	.
.	16dd\JJ	.	16ffn/JJ	.	.	.	.	.	.	.	.	.	.	.
!	!LO:SIC:s=4a	!	!	!	!	!	!	!	!	!	!	!	!	!
8F#\	16b\LL	.	16dd/LL	.	4F#X/	-pel-	4a\	ap-	4dd\)	.	.	.	.	.
.	16b\	.	16dd/	.	.	.	.	.	.	.	.	.	.	.
8F#\J	16b\	.	16dd/	.	.	.	.	.	.	.	.	.	.	.
.	16b\JJ	.	16dd/JJ	.	.	.	.	.	.	.	.	.	.	.
=44	=44	=44	=44	=44	=44	=44	=44	=44	=44	=44	=44	=44	=44	=44
*tremolo	*	*	*	*	*	*	*	*	*	*	*	*	*	*
8E\L	16cc\LL	.	16aa\LL	.	2E\	.	2a\	-pel-	2cc\	Su-	1r	1r	1ryy	1ryy
.	16cc\	.	16aa\	.	.	.	.	.	.	.	.	.	.	.
8E\	16cc\	.	16aa\	.	.	.	.	.	.	.	.	.	.	.
.	16cc\	.	16aa\	.	.	.	.	.	.	.	.	.	.	.
8E\	16cc\	.	16aa\	.	.	.	.	.	.	.	.	.	.	.
.	16cc\	.	16aa\	.	.	.	.	.	.	.	.	.	.	.
8E\J	16cc\	.	16aa\	.	.	.	.	.	.	.	.	.	.	.
.	16cc\JJ	.	16aa\JJ	.	.	.	.	.	.	.	.	.	.	.
8EE/L	16b\LL	.	16gg#X\LL	.	2E\	.	2g#X\	.	2b\	-pe-	.	.	.	.
.	16b\	.	16gg#X\	.	.	.	.	.	.	.	.	.	.	.
8EE/	16b\	.	16gg#X\	.	.	.	.	.	.	.	.	.	.	.
.	16b\	.	16gg#X\	.	.	.	.	.	.	.	.	.	.	.
8EE/	16b\	.	16gg#X\	.	.	.	.	.	.	.	.	.	.	.
.	16b\	.	16gg#X\	.	.	.	.	.	.	.	.	.	.	.
8EE/J	16b\	.	16gg#X\	.	.	.	.	.	.	.	.	.	.	.
.	16b\JJ	.	16gg#X\JJ	.	.	.	.	.	.	.	.	.	.	.
!	!	!	!LO:LB:g=original	!	!LO:LB:g=original	!	!	!	!	!	!	!	!	!
=45	=45	=45	=45	=45	=45	=45	=45	=45	=45	=45	=45	=45	=45	=45
*Xtremolo	*	*	*	*	*	*	*	*	*	*	*	*	*	*
4AA/	8cc\L	.	16.aa\LL	.	4AA/	-la	4c/	-la	4a\	-ret	1r	1r	1ryy	1ryy
.	.	.	32aa\K	.	.	.	.	.	.	.	.	.	.	.
.	16cc\L	.	16aa\	.	.	.	.	.	.	.	.	.	.	.
.	16cc\JJ	.	16aa\JJ	.	.	.	.	.	.	.	.	.	.	.
8AA/L	4cc\	.	4aa\	.	4r	.	4r	.	4r	.	.	.	.	.
8AA/J	.	.	.	.	.	.	.	.	.	.	.	.	.	.
4AA/	2r	.	2r	.	2r	.	2r	.	4r	.	.	.	.	.
4r	.	.	.	.	.	.	.	.	8cc\	hanc	.	.	.	.
.	.	.	.	.	.	.	.	.	8cc\	a-	.	.	.	.
=46	=46	=46	=46	=46	=46	=46	=46	=46	=46	=46	=46	=46	=46	=46
!	!	!	!LO:TX:a:t=1.	!	!	!	!	!	!	!	!	!	!	!
1r	1r	.	1r	.	1r	.	1r	.	4ee-X\	-ppel-	1r	1r	1ryy	1ryy
.	.	.	.	.	.	.	.	.	(8ee-\L	-la	.	.	.	.
.	.	.	.	.	.	.	.	.	8ee-\J)	.	.	.	.	.
!	!	!	!	!	!	!	!	!	!LO:LB:g=original	!	!	!	!	!
!	!	!	!	!	!	!	!	!	!LO:TX:t=P:problem=druga część taktu słabi czytelna	!	!	!	!	!
.	.	.	.	.	.	.	.	.	4ryy	.	.	.	.	.
.	.	.	.	.	.	.	.	.	4a\	pro-	.	.	.	.
=47	=47	=47	=47	=47	=47	=47	=47	=47	=47	=47	=47	=47	=47	=47
.	.	.	.	.	.	.	.	.	8qqg/	.	.	.	.	.
4r	4r	.	4r	.	4r	.	4r	.	4f#X/	-cel-	1r	1r	1ryy	1ryy
(8D\L	8f#/L	.	4cc/	.	8D/L	ne	(8f#/L	ne	4cc\	-la	.	.	.	.
8E-X\J)	8g/J	.	.	.	8E-X/	.	8g/J)	.	.	.	.	.	.	.
(8D\L	(8f#/L	.	4cc\	.	8D/	pro-	(8f#/L	pro-	4cc\	vi-	.	.	.	.
8E-X\)	8g/)	.	.	.	8E-X/J	.	8g/J)	.	.	.	.	.	.	.
(8D\	(8f#/	.	4cc\	.	8D/L	-cel-	(8f#/L	-cel-	4cc\	-ti-	.	.	.	.
8F#\J)	8a/J)	.	.	.	8F#X/J	.	8a/J)	.	.	.	.	.	.	.
!	!	!	!	!	!	!	!LO:LB:g=original	!	!	!	!LO:LB:g=original	!LO:LB:g=original	!	!
=48	=48	=48	=48	=48	=48	=48	=48	=48	=48	=48	=48	=48	=48	=48
!LO:TX:t=P:problem=mixed beam	!	!	!	!	!	!	!	!	!	!	!	!	!	!
8G\L	16g/LL	.	16b\LL	.	4G/	-la	4g\	-la	(4b/	-o-	2g\	2b\	1ryy	1ryy
.	16g/	.	16b\	.	.	.	.	.	.	.	.	.	.	.
8G\	16g/	.	16b\	.	.	.	.	.	.	.	.	.	.	.
.	16g/	.	16b\JJ	.	.	.	.	.	.	.	.	.	.	.
!	!	!	!	!	!	!	!LO:TX:t=P:problem=nadliczbowa 8	!	!	!	!	!	!	!
8BB\	16g/	.	16gg/LL	.	4B\	vi-	4g/	vi-	4gg\)	.	.	.	.	.
.	16g/	.	16gg/	.	.	.	.	.	.	.	.	.	.	.
8BB\J	16g/	.	16gg/	.	.	.	.	.	.	.	.	.	.	.
.	16g/JJ	.	16gg/JJ	.	.	.	.	.	.	.	.	.	.	.
8C/L	16g/LL	.	16ee/LL	.	8c\	-ti-	8g/	-ti-	(4ee\	-rum	2r	2r	.	.
.	16g/	.	16ee/	.	.	.	.	.	.	.	.	.	.	.
8C/	16g/	.	16ee/	.	8c\	-o-	4g\	-o-	.	.	.	.	.	.
.	16g/JJ	.	16ee/JJ	.	.	.	.	.	.	.	.	.	.	.
8E/	16cc/LL	.	16cc\LL	.	8e\	rum	.	.	4cc\)	.	.	.	.	.
.	16cc/	.	16cc\	.	.	.	.	.	.	.	.	.	.	.
8E/J	16cc/	.	16cc\	.	8e\	.	8g/	-rum	.	.	.	.	.	.
.	16cc/JJ	.	16cc\JJ	.	.	.	.	.	.	.	.	.	.	.
=49	=49	=49	=49	=49	=49	=49	=49	=49	=49	=49	=49	=49	=49	=49
*tremolo	*	*	*	*	*	*	*	*	*	*	*	*	*	*
8D\L	16d/ 16ccLL	.	16gg\LL	.	2d\	Su-	2g\	Su-	2b\	su-	2g\	2b\	1ryy	1ryy
.	16d/ 16cc	.	16gg\	.	.	.	.	.	.	.	.	.	.	.
8D\	16d/ 16cc	.	16gg\	.	.	.	.	.	.	.	.	.	.	.
.	16d/ 16cc	.	16gg\	.	.	.	.	.	.	.	.	.	.	.
8D\	16d/ 16cc	.	16gg\	.	.	.	.	.	.	.	.	.	.	.
.	16d/ 16cc	.	16gg\	.	.	.	.	.	.	.	.	.	.	.
8D\J	16d/ 16cc	.	16gg\	.	.	.	.	.	.	.	.	.	.	.
.	16d/ 16ccJJ	.	16gg\JJ	.	.	.	.	.	.	.	.	.	.	.
8DD/L	16cc/LL	.	16ff#\LL	.	2D\	-per-	2f#\	-per-	2a\	-pe-	2d\	2a\	.	.
.	16cc/	.	16ff#\	.	.	.	.	.	.	.	.	.	.	.
8DD/	16cc/	.	16ff#\	.	.	.	.	.	.	.	.	.	.	.
.	16cc/	.	16ff#\	.	.	.	.	.	.	.	.	.	.	.
8DD/	16cc/	.	16ff#\	.	.	.	.	.	.	.	.	.	.	.
.	16cc/	.	16ff#\	.	.	.	.	.	.	.	.	.	.	.
8DD/J	16cc/	.	16ff#\	.	.	.	.	.	.	.	.	.	.	.
.	16cc/JJ	.	16ff#\JJ	.	.	.	.	.	.	.	.	.	.	.
=50	=50	=50	=50	=50	=50	=50	=50	=50	=50	=50	=50	=50	=50	=50
*Xtremolo	*	*	*	*	*	*	*	*	*	*	*	*	*	*
4GG/	16G/ 16gLL	.	4gg/	.	4G\	-ret	4B/	-ret	4g\	-ret	4B/	4g/	1ryy	1ryy
.	16G/ 16g	.	.	.	.	.	.	.	.	.	.	.	.	.
.	16G/ 16g	.	.	.	.	.	.	.	.	.	.	.	.	.
.	16G/ 16g	.	.	.	.	.	.	.	.	.	.	.	.	.
!	!	!	!LO:SIC:s=4ff	!	!	!	!	!	!	!	!	!	!	!
8BB/L	16G/ 16g	.	16gg/LL	.	4B\	ip-	4g\	i-	(4ffn\	i-	4r	4r	.	.
.	16G/ 16g	.	16gg/	.	.	.	.	.	.	.	.	.	.	.
8BB/J	16G/ 16g	.	16gg/	.	.	.	.	.	.	.	.	.	.	.
.	16G/ 16gJJ	.	16gg/JJ	.	.	.	.	.	.	.	.	.	.	.
!LO:LB:g=original	!LO:LB:g=original	!	!LO:SIC:s=4ee	!	!	!	!	!	!	!	!	!	!	!
8C/L	16G/ 16gLL	.	16ffn\LL	.	4c\	.	4g\	.	4ee\)	.	2r	2r	.	.
.	16G/ 16g	.	16ffn\	.	.	.	.	.	.	.	.	.	.	.
8C/	16G/ 16g	.	16ffn\	.	.	.	.	.	.	.	.	.	.	.
.	16G/ 16g	.	16ffn\JJ	.	.	.	.	.	.	.	.	.	.	.
8D/	16G/ 16g	.	16b/LL	.	4d\	-sam	4g\	-psam	4b\	-psam	.	.	.	.
.	16G/ 16g	.	16b/	.	.	.	.	.	.	.	.	.	.	.
8D/J	16G/ 16g	.	16b/	.	.	.	.	.	.	.	.	.	.	.
.	16G/ 16gJJ	.	16b/JJ	.	.	.	.	.	.	.	.	.	.	.
=51	=51	=51	=51	=51	=51	=51	=51	=51	=51	=51	=51	=51	=51	=51
8E/L	16G/ 16gLL	.	16cc/LL	.	4e\	co-	4g/	co-	4cc\	co-	4r	4r	1ryy	1ryy
.	16G/ 16g	.	16cc/	.	.	.	.	.	.	.	.	.	.	.
8E/	16G/ 16g	.	16cc/	.	.	.	.	.	.	.	.	.	.	.
.	16G/ 16g	.	16cc/JJ	.	.	.	.	.	.	.	.	.	.	.
8BB/	16G/ 16g	.	16ffn/LL	.	4B\	.	4g/	-le	4ffn\	.	4G/	4g/	.	.
.	16G/ 16g	.	16ffn/	.	.	.	.	.	.	.	.	.	.	.
8BB/J	16G/ 16g	.	16ffn/	.	.	.	.	.	.	.	.	.	.	.
.	16G/ 16gJJ	.	16ffn/JJ	.	.	.	.	.	.	.	.	.	.	.
8C/L	16G/ 16gLL	.	16ee/LL	.	4c\	.	4g/	ut	4ee\	.	4G/	4g/	.	.
.	16G/ 16g	.	16ee/	.	.	.	.	.	.	.	.	.	.	.
8C/	16G/ 16g	.	16ee/	.	.	.	.	.	.	.	.	.	.	.
.	16G/ 16g	.	16ee/JJ	.	.	.	.	.	.	.	.	.	.	.
8D/	16G/ 16g	.	16b/LL	.	4d\	.	4g/	de	4b\	-le	4G/	4g/	.	.
.	16G/ 16g	.	16b/	.	.	.	.	.	.	.	.	.	.	.
8D/J	16G/ 16g	.	16b/	.	.	.	.	.	.	.	.	.	.	.
.	16G/ 16gJJ	.	16b/JJ	.	.	.	.	.	.	.	.	.	.	.
=52	=52	=52	=52	=52	=52	=52	=52	=52	=52	=52	=52	=52	=52	=52
4E/	4G/	.	16cc/LL	.	4e\	-le	4g/	mo-	4cc\	ut	4G/	4g/	1ryy	1ryy
.	.	.	16cc/	.	.	.	.	.	.	.	.	.	.	.
.	.	.	16cc/	.	.	.	.	.	.	.	.	.	.	.
.	.	.	16cc/JJ	.	.	.	.	.	.	.	.	.	.	.
8C#X/L	16A/LL	.	16gg\LL	.	4C#X/	ut	4a/	-le	4gg\	de	4r	4r	.	.
.	16A/	.	16gg\	.	.	.	.	.	.	.	.	.	.	.
8C#/J	16A/	.	16gg\	.	.	.	.	.	.	.	.	.	.	.
.	16A/JJ	.	16gg\JJ	.	.	.	.	.	.	.	.	.	.	.
!	!	!	!	!	!	!	!	!	!LO:LB:g=original	!	!	!	!	!
8D/L	16A/LL	.	16ff#X\LL	.	4D/	.	4a/	i-	4ff#X\	mo-	2r	2r	.	.
.	16A/	.	16ff#X\	.	.	.	.	.	.	.	.	.	.	.
8D/	16A/	.	16ff#X\	.	.	.	.	.	.	.	.	.	.	.
.	16A/	.	16ff#X\JJ	.	.	.	.	.	.	.	.	.	.	.
8E/	16A/	.	16cc#X/LL	.	4E/	de	4a/	-psam	4cc#X\	-le	.	.	.	.
.	16A/	.	16cc#X/	.	.	.	.	.	.	.	.	.	.	.
8E/J	16A/	.	16cc#X\	.	.	.	.	.	.	.	.	.	.	.
.	16A/JJ	.	16cc#X\JJ	.	.	.	.	.	.	.	.	.	.	.
!	!	!	!	!	!LO:LB:g=original	!	!	!	!	!	!	!	!	!
=53	=53	=53	=53	=53	=53	=53	=53	=53	=53	=53	=53	=53	=53	=53
8F#\L	16A/LL	.	16dd/LL	.	4F#/	mo-	4a\	co-	4dd\	ut	1r	1r	1ryy	1ryy
.	16A/	.	16dd/	.	.	.	.	.	.	.	.	.	.	.
8F#\	16A/	.	16dd/	.	.	.	.	.	.	.	.	.	.	.
.	16A/	.	16dd/JJ	.	.	.	.	.	.	.	.	.	.	.
8C#X/	16A/	.	16gg/LL	.	4C#X/	.	4a\	-le	4gg\	de	.	.	.	.
.	16A/	.	16gg/	.	.	.	.	.	.	.	.	.	.	.
8C#/J	16A/	.	16gg/	.	.	.	.	.	.	.	.	.	.	.
.	16A/JJ	.	16gg/JJ	.	.	.	.	.	.	.	.	.	.	.
8D/L	16A/LL	.	16ff#/LL	.	4D/	.	4a/	ut	4ff#\	mo-	.	.	.	.
.	16A/	.	16ff#/	.	.	.	.	.	.	.	.	.	.	.
8D\	16A/	.	16ff#/	.	.	.	.	.	.	.	.	.	.	.
.	16A/	.	16ff#/JJ	.	.	.	.	.	.	.	.	.	.	.
8E\	16A/	.	16cc#X/LL	.	4E/	.	4a/	de	4cc#X\	-le	.	.	.	.
.	16A/	.	16cc#X/	.	.	.	.	.	.	.	.	.	.	.
8E\J	16A/	.	16cc#X/	.	.	.	.	.	.	.	.	.	.	.
.	16A/JJ	.	16cc#X/JJ	.	.	.	.	.	.	.	.	.	.	.
!	!	!	!LO:LB:g=original	!	!	!	!LO:LB:g=original	!	!	!	!	!	!	!
=54	=54	=54	=54	=54	=54	=54	=54	=54	=54	=54	=54	=54	=54	=54
4F#\	4d/	.	16gg\LL	.	4F#\	-le	4a\	mo-	4dd\	cri-	1r	1r	1ryy	1ryy
.	.	.	16gg\	.	.	.	.	.	.	.	.	.	.	.
.	.	.	16gg\	.	.	.	.	.	.	.	.	.	.	.
.	.	.	16gg\JJ	.	.	.	.	.	.	.	.	.	.	.
8F#\L	16d/LL	.	16aa\LL	.	4F#\	ip-	4dd\	-le	4ccn\	.	.	.	.	.
.	16d/	.	16aa\	.	.	.	.	.	.	.	.	.	.	.
8F#\J	16d/	.	16aa\	.	.	.	.	.	.	.	.	.	.	.
.	16d/JJ	.	16aa\JJ	.	.	.	.	.	.	.	.	.	.	.
8G\L	16d/LL	.	16bb\LL	.	4G\	.	4dd\	i-	4b\	.	.	.	.	.
.	16d/	.	16bb\	.	.	.	.	.	.	.	.	.	.	.
8G\	16d/	.	16bb\	.	.	.	.	.	.	.	.	.	.	.
.	16d/	.	16bb\JJ	.	.	.	.	.	.	.	.	.	.	.
8A\	16d/	.	16ff#/LL	.	4A\	-sam	4dd\	-psam	4f#/	.	.	.	.	.
.	16d/	.	16ff#/	.	.	.	.	.	.	.	.	.	.	.
8A\J	16d/	.	16ff#/	.	.	.	.	.	.	.	.	.	.	.
.	16d/JJ	.	16ff#/JJ	.	.	.	.	.	.	.	.	.	.	.
=55	=55	=55	=55	=55	=55	=55	=55	=55	=55	=55	=55	=55	=55	=55
8B\L	16d/LL	.	16gg/LL	.	4B/	co-	4dd\	co-	4g/	.	4r	4r	1ryy	1ryy
.	16d/	.	16gg/	.	.	.	.	.	.	.	.	.	.	.
8B\	16d/	.	16gg/	.	.	.	.	.	.	.	.	.	.	.
.	16d/	.	16gg/JJ	.	.	.	.	.	.	.	.	.	.	.
8F#\	16d/	.	16cccn\LL	.	4F#/	.	4dd\	-le	4cc\	.	4d/	4d/	.	.
.	16d/	.	16cccn\	.	.	.	.	.	.	.	.	.	.	.
8F#\J	16d/	.	16cccn\	.	.	.	.	.	.	.	.	.	.	.
.	16d/JJ	.	16cccn\JJ	.	.	.	.	.	.	.	.	.	.	.
8G\L	16d/LL	.	16bb\LL	.	4G/	-le	4dd\	ut	4b\	.	4d/	4d/	.	.
.	16d/	.	16bb\	.	.	.	.	.	.	.	.	.	.	.
8G\	16d/	.	16bb\	.	.	.	.	.	.	.	.	.	.	.
.	16d/	.	16bb\JJ	.	.	.	.	.	.	.	.	.	.	.
!	!	!	!	!	!	!	!	!	!	!	!	!LO:TX:t=P:problem=nadliczbowa 4r	!	!
8A\	16d/	.	16ff#\LL	.	4A/	.	4dd\	de	4f#/	-mi-	4d/	4d/	.	.
.	16d/	.	16ff#\	.	.	.	.	.	.	.	.	.	.	.
8A\J	16d/	.	16ff#\	.	.	.	.	.	.	.	.	.	.	.
.	16d/JJ	.	16ff#\JJ	.	.	.	.	.	.	.	.	.	.	.
=56	=56	=56	=56	=56	=56	=56	=56	=56	=56	=56	=56	=56	=56	=56
*tremolo	*	*	*	*	*	*	*	*	*	*	*	*	*	*
8G\L	16dd\LL	.	16bb\LL	.	2G\	ip-	2d\	mo-	4g\	-num	1g	1b	1ryy	1ryy
.	16dd\	.	16bb\	.	.	.	.	.	.	.	.	.	.	.
8G\	16dd\	.	16bb\	.	.	.	.	.	.	.	.	.	.	.
.	16dd\	.	16bb\	.	.	.	.	.	.	.	.	.	.	.
8G\	16dd\	.	16bb\	.	.	.	.	.	4b\	te	.	.	.	.
.	16dd\	.	16bb\	.	.	.	.	.	.	.	.	.	.	.
8G\J	16dd\	.	16bb\	.	.	.	.	.	.	.	.	.	.	.
.	16dd\JJ	.	16bb\JJ	.	.	.	.	.	.	.	.	.	.	.
8G\L	16dd\LL	.	16bb\LL	.	2G\	-sam	2d\	-le	[2b\	li-	.	.	.	.
.	16dd\	.	16bb\	.	.	.	.	.	.	.	.	.	.	.
8G\	16dd\	.	16bb\	.	.	.	.	.	.	.	.	.	.	.
.	16dd\	.	16bb\	.	.	.	.	.	.	.	.	.	.	.
8G\	16dd\	.	16bb\	.	.	.	.	.	.	.	.	.	.	.
.	16dd\	.	16bb\	.	.	.	.	.	.	.	.	.	.	.
8G\J	16dd\	.	16bb\	.	.	.	.	.	.	.	.	.	.	.
.	16dd\JJ	.	16bb\JJ	.	.	.	.	.	.	.	.	.	.	.
!LO:LB:g=original	!	!	!	!	!	!	!	!	!	!	!	!	!	!
=57	=57	=57	=57	=57	=57	=57	=57	=57	=57	=57	=57	=57	=57	=57
8E\L	16gg\LL	.	16bb\LL	.	2E\	co-	2g\	i-	2b\]	.	1g	1b	1ryy	1ryy
.	16gg\	.	16bb\	.	.	.	.	.	.	.	.	.	.	.
8E\	16gg\	.	16bb\	.	.	.	.	.	.	.	.	.	.	.
.	16gg\	.	16bb\	.	.	.	.	.	.	.	.	.	.	.
8E\	16gg\	.	16bb\	.	.	.	.	.	.	.	.	.	.	.
.	16gg\	.	16bb\	.	.	.	.	.	.	.	.	.	.	.
8E\J	16gg\	.	16bb\	.	.	.	.	.	.	.	.	.	.	.
.	16gg\JJ	.	16bb\JJ	.	.	.	.	.	.	.	.	.	.	.
8E\L	16gg\LL	.	16bb\LL	.	2E\	-le	2g\	-psam	2b\	-be-	.	.	.	.
.	16gg\	.	16bb\	.	.	.	.	.	.	.	.	.	.	.
8E\	16gg\	.	16bb\	.	.	.	.	.	.	.	.	.	.	.
.	16gg\	.	16bb\	.	.	.	.	.	.	.	.	.	.	.
8E\	16gg\	.	16bb\	.	.	.	.	.	.	.	.	.	.	.
.	16gg\	.	16bb\	.	.	.	.	.	.	.	.	.	.	.
8E\J	16gg\	.	16bb\	.	.	.	.	.	.	.	.	.	.	.
.	16gg\JJ	.	16bb\JJ	.	.	.	.	.	.	.	.	.	.	.
=58	=58	=58	=58	=58	=58	=58	=58	=58	=58	=58	=58	=58	=58	=58
8C/L	16ee\LL	.	16aa\LL	.	2C\	ut	2e\	co-	[2a\	-ret	1r	1r	1ryy	1ryy
.	16ee\	.	16aa\	.	.	.	.	.	.	.	.	.	.	.
8C/	16ee\	.	16aa\	.	.	.	.	.	.	.	.	.	.	.
.	16ee\	.	16aa\	.	.	.	.	.	.	.	.	.	.	.
8C/	16ee\	.	16aa\	.	.	.	.	.	.	.	.	.	.	.
.	16ee\	.	16aa\	.	.	.	.	.	.	.	.	.	.	.
8C/J	16ee\	.	16aa\	.	.	.	.	.	.	.	.	.	.	.
.	16ee\JJ	.	16aa\JJ	.	.	.	.	.	.	.	.	.	.	.
8C/L	16ee\LL	.	16aa\LL	.	2C\	de	2e\	-le	2a\]	.	.	.	.	.
.	16ee\	.	16aa\	.	.	.	.	.	.	.	.	.	.	.
8C/	16ee\	.	16aa\	.	.	.	.	.	.	.	.	.	.	.
.	16ee\	.	16aa\	.	.	.	.	.	.	.	.	.	.	.
8C/	16ee\	.	16aa\	.	.	.	.	.	.	.	.	.	.	.
.	16ee\	.	16aa\	.	.	.	.	.	.	.	.	.	.	.
8C/J	16ee\	.	16aa\	.	.	.	.	.	.	.	.	.	.	.
.	16ee\JJ	.	16aa\JJ	.	.	.	.	.	.	.	.	.	.	.
!	!	!	!	!	!	!	!	!	!LO:LB:g=original	!	!	!	!	!
=59	=59	=59	=59	=59	=59	=59	=59	=59	=59	=59	=59	=59	=59	=59
8C#X/L	16gg\LL	.	16aa\LL	.	2C#X\	mo-	2g\	ut	2a\	ip-	1r	1r	1ryy	1ryy
.	16gg\	.	16aa\	.	.	.	.	.	.	.	.	.	.	.
8C#X/	16gg\	.	16aa\	.	.	.	.	.	.	.	.	.	.	.
.	16gg\	.	16aa\	.	.	.	.	.	.	.	.	.	.	.
8C#X/	16gg\	.	16aa\	.	.	.	.	.	.	.	.	.	.	.
.	16gg\	.	16aa\	.	.	.	.	.	.	.	.	.	.	.
8C#X/J	16gg\	.	16aa\	.	.	.	.	.	.	.	.	.	.	.
.	16gg\JJ	.	16aa\JJ	.	.	.	.	.	.	.	.	.	.	.
8C#/L	16gg\LL	.	16aa\LL	.	2C#\	-le	2g\	de	2a\	-sam	.	.	.	.
.	16gg\	.	16aa\	.	.	.	.	.	.	.	.	.	.	.
8C#/	16gg\	.	16aa\	.	.	.	.	.	.	.	.	.	.	.
.	16gg\	.	16aa\	.	.	.	.	.	.	.	.	.	.	.
8C#/	16gg\	.	16aa\	.	.	.	.	.	.	.	.	.	.	.
.	16gg\	.	16aa\	.	.	.	.	.	.	.	.	.	.	.
8C#/J	16gg\	.	16aa\	.	.	.	.	.	.	.	.	.	.	.
.	16gg\JJ	.	16aa\JJ	.	.	.	.	.	.	.	.	.	.	.
=60	=60	=60	=60	=60	=60	=60	=60	=60	=60	=60	=60	=60	=60	=60
8D\L	16b\LL	.	16gg\LL	.	2D\	mo-	2g\	Mo-	2b\	co-	2g\	2b\	1ryy	1ryy
.	16b\	.	16gg\	.	.	.	.	.	.	.	.	.	.	.
8D\	16b\	.	16gg\	.	.	.	.	.	.	.	.	.	.	.
.	16b\	.	16gg\	.	.	.	.	.	.	.	.	.	.	.
8D\	16b\	.	16gg\	.	.	.	.	.	.	.	.	.	.	.
.	16b\	.	16gg\	.	.	.	.	.	.	.	.	.	.	.
8D\J	16b\	.	16gg\	.	.	.	.	.	.	.	.	.	.	.
.	16b\JJ	.	16gg\JJ	.	.	.	.	.	.	.	.	.	.	.
8DD/L	16a\LL	.	16gg/LL	.	2D\	-le	2f#\	-le	2a\	-le	2d\	2a\	.	.
.	16a\	.	16gg/	.	.	.	.	.	.	.	.	.	.	.
8DD/	16a\	.	16gg/	.	.	.	.	.	.	.	.	.	.	.
.	16a\	.	16gg/JJ	.	.	.	.	.	.	.	.	.	.	.
8DD/	16a\	.	16ff#/LL	.	.	.	.	.	.	.	.	.	.	.
.	16a\	.	16ff#/	.	.	.	.	.	.	.	.	.	.	.
8DD/J	16a\	.	16ff#/	.	.	.	.	.	.	.	.	.	.	.
.	16a\JJ	.	16ff#/JJ	.	.	.	.	.	.	.	.	.	.	.
!	!LO:LB:g=original	!	!	!	!	!	!	!	!	!	!LO:LB:g=original	!LO:LB:g=original	!	!
=61	=61	=61	=61	=61	=61||:	=61	=61	=61	=61	=61	=61	=61	=61	=61
*	*	*	*Xtremolo	*	*	*	*	*	*	*	*	*	*	*
8G/L	16d/LL	.	16gg\LL	.	8G\L	ip-	8d/	ip-	8g\L	ip-	4G/	4g/	1ryy	1ryy
.	16d/	.	16gg\	.	.	.	.	.	.	.	.	.	.	.
8B/	16d/	.	16ddd\	.	8B\	-sam	4d/	-sam	8dd\J	.	.	.	.	.
.	16d/	.	16ddd\JJ	.	.	.	.	.	.	.	.	.	.	.
!	!	!	!	!	!	!	!	!	!LO:TX:t=P:problem=mixed beam	!	!	!	!	!
8A/	16d/	.	16ccc\LL	.	8A\	.	.	.	8cc\L	-sam	4r	4r	.	.
.	16d/	.	16ccc\	.	.	.	.	.	.	.	.	.	.	.
8c\J	16d/	.	16ff#/	.	8c\J	.	8d/	.	8f#\J	.	.	.	.	.
.	16d/JJ	.	16ff#/JJ	.	.	.	.	.	.	.	.	.	.	.
!	!	!	!	!	!LO:LB:g=original	!	!	!	!	!	!	!	!	!
8B\L	16d/LL	.	16gg/LL	.	8B\L	co-	8d/	co-	8g\L	co-	2r	2r	.	.
.	16d/	.	16gg\	.	.	.	.	.	.	.	.	.	.	.
8G/	16d/	.	16ddd\	.	8G\	.	4d/	-le	8dd\J	.	.	.	.	.
.	16d/	.	16ddd\JJ	.	.	.	.	.	.	.	.	.	.	.
!	!	!	!	!	!	!	!	!	!LO:TX:t=P:problem=mixed beam	!	!	!	!	!
8A/	16d/	.	16ccc\LL	.	8A\	-le	.	.	8cc\L	-le	.	.	.	.
.	16d/	.	16ccc\	.	.	.	.	.	.	.	.	.	.	.
8c\J	16d/	.	16ff#/	.	8c\J	.	8d/	.	8f#\J	.	.	.	.	.
.	16d/JJ	.	16ff#/JJ	.	.	.	.	.	.	.	.	.	.	.
=62	=62	=62	=62	=62	=62:||	=62	=62	=62	=62	=62	=62	=62	=62	=62
!	!	!	!	!	!LO:TX:t=P:problem=takt zapisany powtórką	!	!	!	!	!	!	!	!	!
8B\L	8d/L	.	8gg\L	.	8G\Lyy	ip-	8d\	ut	8g/L	ut	4G/	4g/	1ryy	1ryy
8G/	16d/L	.	16ddd\L	.	8B\yy	-sam	4d/	.	8dd\J	.	.	.	.	.
.	16d/JJ	.	16ddd\JJ	.	.	.	.	.	.	.	.	.	.	.
8A/	16d/LL	.	16ccc\LL	.	8A\yy	.	.	.	8cc\L	de	4r	4r	.	.
.	16d/	.	16ccc\	.	.	.	.	.	.	.	.	.	.	.
8c\J	16d/	.	16ff#\	.	8c\Jyy	.	8d/	de	8a\J	.	.	.	.	.
.	16d/JJ	.	16ff#/JJ	.	.	.	.	.	.	.	.	.	.	.
!	!	!	!LO:LB:g=original	!	!	!	!	!	!	!	!	!	!	!
8B\L	16d/LL	.	8gg\L	.	8B\Lyy	co-	8d/	mo-	8g\L	mo-	2r	2r	.	.
.	16d/	.	.	.	.	.	.	.	.	.	.	.	.	.
8G/	16d/	.	16ddd\L	.	8G\yy	.	4d/	.	8dd\J	.	.	.	.	.
.	16d/	.	16ddd\JJ	.	.	.	.	.	.	.	.	.	.	.
!LO:TX:a:t=a	!	!	!	!	!	!	!	!	!LO:TX:t=P:problem=mixed beam	!	!	!	!	!
8A/	16d/	.	16ccc\LL	.	8A\yy	-le	.	.	8cc\L	-le	.	.	.	.
.	16d/	.	16ccc\	.	.	.	.	.	.	.	.	.	.	.
8c\J	16d/	.	16ff#/	.	8c\Jyy	.	8d/	-le	8f#\J	.	.	.	.	.
.	16d/JJ	.	16ff#/JJ	.	.	.	.	.	.	.	.	.	.	.
!	!	!	!	!	!	!	!LO:LB:g=original	!	!	!	!	!	!	!
=63	=63	=63	=63	=63	=63	=63	=63	=63	=63	=63	=63	=63	=63	=63
8B\L	8d/L	.	8gg\L	.	8B\L	ut	8g/	ip-	8g\L	ip-	4G/	4g/	1ryy	1ryy
8e\	16g/L	.	16gg\L	.	8e\	.	4g/	-sam	8gg\J	.	.	.	.	.
.	16g/JJ	.	16gg\JJ	.	.	.	.	.	.	.	.	.	.	.
8d\	16g/LL	.	16ff#\LL	.	8d/	de	.	.	8ff#\L	-sam	8G/L	8g/L	.	.
.	16g/	.	16ff#\	.	.	.	.	.	.	.	.	.	.	.
8c\J	16g/	.	16ee/	.	8c\J	.	8g/	.	8ee\J	.	8G/J	8g/J	.	.
.	16g/JJ	.	16ee/JJ	.	.	.	.	.	.	.	.	.	.	.
!	!	!	!	!	!	!	!	!	!LO:LB:g=original	!	!	!	!	!
8B\L	16g/LL	.	16dd/LL	.	8B\L	mo-	8g/	co-	8dd\L	co-	4G/	4g/	.	.
.	16g/	.	16dd/	.	.	.	.	.	.	.	.	.	.	.
8e\	16g/	.	16gg/	.	8e\	.	4g/	.	8gg\J	.	.	.	.	.
.	16g/	.	16gg/JJ	.	.	.	.	.	.	.	.	.	.	.
8d\	16g/	.	16ff#/LL	.	8d\	-le	.	.	8ff#\L	-le	4G/	4g/	.	.
.	16g/	.	16ff#/	.	.	.	.	.	.	.	.	.	.	.
8c\J	16g/	.	16ee/	.	8c\J	.	8g/	-le	8ee\J	.	.	.	.	.
.	16g/JJ	.	16ee/JJ	.	.	.	.	.	.	.	.	.	.	.
=64	=64	=64	=64	=64	=64	=64	=64	=64	=64	=64	=64	=64	=64	=64
8B\L	8g/L	.	8dd/L	.	8B\L	vi-	8g/	ut	8dd\L	ut	4G/	4g/	1ryy	1ryy
8e\	16g/L	.	16gg/L	.	8e\	-ti-	4g/	.	8gg\J	.	.	.	.	.
.	16g/JJ	.	16gg/JJ	.	.	.	.	.	.	.	.	.	.	.
8d\	16g/LL	.	16ff#/LL	.	8d\	.	.	.	8ff#\L	de	8G/L	8g/L	.	.
.	16g/	.	16ff#/	.	.	.	.	.	.	.	.	.	.	.
8c\J	16g/	.	16ee/	.	8c\J	.	8g/	de	8ee\J	.	8G/J	8g/J	.	.
.	16g/JJ	.	16ee/JJ	.	.	.	.	.	.	.	.	.	.	.
!LO:LB:g=original	!	!	!	!	!	!	!	!	!	!	!	!	!	!
8B\L	16g/LL	.	16dd/LL	.	8B\L	-o-	8g/	mol-	8ee\L	mo-	4G/	4g/	.	.
.	16g/	.	16dd/	.	.	.	.	.	.	.	.	.	.	.
8e\	16g/	.	16gg/	.	8e\	.	4g/	-le	8gg\J	.	.	.	.	.
.	16g/	.	16gg/JJ	.	.	.	.	.	.	.	.	.	.	.
8d\	16g/	.	16ffn/LL	.	8d\	-rum	.	.	8ffn\L	-le	4G/	4g/	.	.
.	16g/	.	16ff/	.	.	.	.	.	.	.	.	.	.	.
!	!	!	!LO:TX:a:t=dis	!	!	!	!	!	!	!	!	!	!	!
8B\J	16g/	.	16dd#X/	.	8B\J	.	8g/	.	8dd#X\J	.	.	.	.	.
.	16g/JJ	.	16dd#/JJ	.	.	.	.	.	.	.	.	.	.	.
=65	=65	=65	=65	=65	=65	=65	=65	=65	=65	=65	=65	=65	=65	=65
!LO:TX:t=P:problem=mixed beam	!	!	!	!	!	!	!	!	!	!	!	!	!	!
*Xtremolo	*	*	*tremolo	*	*	*	*	*	*	*	*	*	*	*
8c/L	16g/LL	.	16ee\LL	.	2c\	Su-	8g/	vi-	4ee\	vi-	4G/	4g/	1ryy	1ryy
.	16g/	.	16ee\	.	.	.	.	.	.	.	.	.	.	.
8C/	16g/	.	16ee\	.	.	.	4g/	-ti-	.	.	.	.	.	.
.	16g/	.	16ee\	.	.	.	.	.	.	.	.	.	.	.
8C/	16g/	.	16ee\	.	.	.	.	.	4ee\	-ti-	4r	4r	.	.
.	16g/	.	16ee\	.	.	.	.	.	.	.	.	.	.	.
8C/J	16g/	.	16ee\	.	.	.	8g/	-o-	.	.	.	.	.	.
.	16g/JJ	.	16ee\JJ	.	.	.	.	.	.	.	.	.	.	.
8C/L	16a/LL	.	16ff#/LL	.	2c\	.	8g\	.	4ff#\	-o-	2r	2r	.	.
.	16a/	.	16ff#/	.	.	.	.	.	.	.	.	.	.	.
8C/	16a/	.	16ff#/	.	.	.	4g/	-rum	.	.	.	.	.	.
.	16a/JJ	.	16ff#/JJ	.	.	.	.	.	.	.	.	.	.	.
8E/	16b/LL	.	16gg/LL	.	.	.	.	.	4gg\	-rum	.	.	.	.
.	16b/	.	16gg/	.	.	.	.	.	.	.	.	.	.	.
8E/J	16b/	.	16gg/	.	.	.	8g/	.	.	.	.	.	.	.
.	16b/JJ	.	16gg/JJ	.	.	.	.	.	.	.	.	.	.	.
=66	=66	=66	=66	=66	=66	=66	=66	=66	=66	=66	=66	=66	=66	=66
*tremolo	*	*	*	*	*	*	*	*	*	*	*	*	*	*
8D\L	16b\LL	.	16gg\LL	.	2d\	.	2g\	su-	2b\	Su-	2g\	2b\	1ryy	1ryy
.	16b\	.	16gg\	.	.	.	.	.	.	.	.	.	.	.
8D\	16b\	.	16gg\	.	.	.	.	.	.	.	.	.	.	.
.	16b\	.	16gg\	.	.	.	.	.	.	.	.	.	.	.
8D\	16b\	.	16gg\	.	.	.	.	.	.	.	.	.	.	.
.	16b\	.	16gg\	.	.	.	.	.	.	.	.	.	.	.
8D\J	16b\	.	16gg\	.	.	.	.	.	.	.	.	.	.	.
.	16b\JJ	.	16gg\JJ	.	.	.	.	.	.	.	.	.	.	.
8DD/L	16a\LL	.	16gg/LL	.	2D\	-pe-	2f#\	-per-	2a\	-pe-	2d\	2a\	.	.
.	16a\	.	16gg/	.	.	.	.	.	.	.	.	.	.	.
8DD/	16a\	.	16gg/	.	.	.	.	.	.	.	.	.	.	.
.	16a\	.	16gg/JJ	.	.	.	.	.	.	.	.	.	.	.
8DD/	16a\	.	16ff#/LL	.	.	.	.	.	.	.	.	.	.	.
.	16a\	.	16ff#/	.	.	.	.	.	.	.	.	.	.	.
8DD/J	16a\	.	16ff#/	.	.	.	.	.	.	.	.	.	.	.
.	16a\JJ	.	16ff#/JJ	.	.	.	.	.	.	.	.	.	.	.
=67	=67	=67	=67	=67	=67	=67	=67	=67	=67	=67	=67	=67	=67	=67
*	*	*	*Xtremolo	*	*	*	*	*	*	*	*	*	*	*
8GG/L	8g/L	.	8gg/L	.	8G\L	-ret	8g/	-et	8g\	-ret	4G/	4g\	1ryy	1ryy
8E/	16g/L	.	16gg/L	.	8e\	.	4g/	ip-	8gg\L	ip-	.	.	.	.
.	16g/JJ	.	16gg/JJ	.	.	.	.	.	.	.	.	.	.	.
8D/	16g/LL	.	16ff#/LL	.	8d\	ut	.	.	8ff#\J	.	8G/L	8g\L	.	.
.	16g/	.	16ff#/	.	.	.	.	.	.	.	.	.	.	.
8C/J	16g/	.	16ee/	.	8c\J	de	8g/	-sam	8ee\	-sam	8G/J	8g/J	.	.
.	16g/JJ	.	16ee/JJ	.	.	.	.	.	.	.	.	.	.	.
!	!	!	!	!	!	!	!	!	!LO:LB:g=original	!	!	!	!	!
8BB/L	16g/LL	.	16dd/LL	.	8B\L	mo-	8g/	.	8dd\L	co-	4G/	4g/	.	.
.	16g/	.	16dd/	.	.	.	.	.	.	.	.	.	.	.
8E/	16g/	.	16gg/	.	8e\	.	4g/	co-	8gg\J	.	.	.	.	.
.	16g/	.	16gg/JJ	.	.	.	.	.	.	.	.	.	.	.
8D/	16g/	.	16ff#/LL	.	8d\	-le	.	.	8ff#\L	-le	4G/	4g/	.	.
.	16g/	.	16ff#/	.	.	.	.	.	.	.	.	.	.	.
8C/J	16g/	.	16ee/	.	8c\J	.	8g/	-le	8ee\J	.	.	.	.	.
.	16g/JJ	.	16ee/JJ	.	.	.	.	.	.	.	.	.	.	.
!	!	!	!LO:LB:g=original	!	!LO:LB:g=original	!	!	!	!	!	!	!	!	!
=68	=68	=68	=68	=68	=68	=68	=68	=68	=68	=68	=68	=68	=68	=68
8BB/L	8g/L	.	8dd/L	.	8B\L	vi-	8g/	ut	8dd\L	ut	4G/	4g/	1ryy	1ryy
8E/	16g/L	.	16gg/L	.	8e\	.	4g/	de	8gg\J	.	.	.	.	.
.	16g/JJ	.	16gg/JJ	.	.	.	.	.	.	.	.	.	.	.
8D/	16g/LL	.	16ff#/LL	.	8d\	-ti-	.	.	8ff#\L	de	8G/L	8g/L	.	.
.	16g/	.	16ff#/	.	.	.	.	.	.	.	.	.	.	.
8C/J	16g/	.	16ee/	.	8c\J	.	8g/	.	8ee\J	.	8G/J	8g/J	.	.
.	16g/JJ	.	16ee/JJ	.	.	.	.	.	.	.	.	.	.	.
8BB/L	16g/LL	.	16dd/LL	.	8B\L	-o-	8g/	mo-	8dd\L	mo-	4G/	4g/	.	.
.	16g/	.	16dd/	.	.	.	.	.	.	.	.	.	.	.
8E/	16g/	.	16gg/	.	8e\	.	4g/	-le	8gg\J	.	.	.	.	.
.	16g/	.	16gg/JJ	.	.	.	.	.	.	.	.	.	.	.
8D/	16g/	.	16ffn/LL	.	8d\	-rum	.	.	8ffn\L	-le	4G/	4g/	.	.
.	16g/	.	16ff/	.	.	.	.	.	.	.	.	.	.	.
8BB/J	16g/	.	16dd#X/	.	8B\J	.	8g/	.	8dd#X\J	.	.	.	.	.
.	16g/JJ	.	16dd#/JJ	.	.	.	.	.	.	.	.	.	.	.
!	!	!	!	!	!	!	!	!	!	!	!LO:LB:g=original	!LO:LB:g=original	!	!
!	!LO:LB:g=original	!	!	!	!	!	!LO:LB:g=original	!	!	!	!	!	!	!
=69	=69	=69	=69	=69	=69	=69	=69	=69	=69	=69	=69	=69	=69	=69
*	*	*	*tremolo	*	*	*	*	*	*	*	*	*	*	*
8C\L	16g/LL	.	16ee\LL	.	2c\	Su-	2g\	vi-	4ee\	vi-	4G/	4g/	1ryy	1ryy
.	16g/	.	16ee\	.	.	.	.	.	.	.	.	.	.	.
8C\	16g/	.	16ee\	.	.	.	.	.	.	.	.	.	.	.
.	16g/	.	16ee\	.	.	.	.	.	.	.	.	.	.	.
8C\	16g/	.	16ee\	.	.	.	.	.	4ee\	-ti-	4r	4r	.	.
.	16g/	.	16ee\	.	.	.	.	.	.	.	.	.	.	.
8C\J	16g/	.	16ee\	.	.	.	.	.	.	.	.	.	.	.
.	16g/JJ	.	16ee\JJ	.	.	.	.	.	.	.	.	.	.	.
*Xtremolo	*	*	*	*	*	*	*	*	*	*	*	*	*	*
8C/L	16a/LL	.	16ff#/LL	.	2c\	.	8g/	-ti-	4ff#\	-o-	2r	2r	.	.
.	16a/	.	16ff#/	.	.	.	.	.	.	.	.	.	.	.
8C/	16a/	.	16ff#/	.	.	.	8g/	-o-	.	.	.	.	.	.
.	16a/JJ	.	16ff#/JJ	.	.	.	.	.	.	.	.	.	.	.
8E/	16b/LL	.	16gg/LL	.	.	.	8g/	-rum	4gg\	-rum	.	.	.	.
.	16b/	.	16gg/	.	.	.	.	.	.	.	.	.	.	.
8E/J	16b/	.	16gg/	.	.	.	8g/	.	.	.	.	.	.	.
.	16b/JJ	.	16gg/JJ	.	.	.	.	.	.	.	.	.	.	.
=70	=70	=70	=70	=70	=70	=70	=70	=70	=70	=70	=70	=70	=70	=70
*tremolo	*	*	*	*	*	*	*	*	*	*	*	*	*	*
8D\L	16b\LL	.	16gg\LL	.	2d\	-per-	2g\	su-	2b\	Su-	2g\	2b\	1ryy	1ryy
.	16b\	.	16gg\	.	.	.	.	.	.	.	.	.	.	.
8D\	16b\	.	16gg\	.	.	.	.	.	.	.	.	.	.	.
.	16b\	.	16gg\	.	.	.	.	.	.	.	.	.	.	.
8D\	16b\	.	16gg\	.	.	.	.	.	.	.	.	.	.	.
.	16b\	.	16gg\	.	.	.	.	.	.	.	.	.	.	.
8D\J	16b\	.	16gg\	.	.	.	.	.	.	.	.	.	.	.
.	16b\JJ	.	16gg\JJ	.	.	.	.	.	.	.	.	.	.	.
8DD/L	16a\LL	.	16ff#\LL	.	2D\	.	2f#\	-pe-	2a\	-pe-	2d\	2a\	.	.
.	16a\	.	16ff#\	.	.	.	.	.	.	.	.	.	.	.
8DD/	16a\	.	16ff#\	.	.	.	.	.	.	.	.	.	.	.
.	16a\	.	16ff#\	.	.	.	.	.	.	.	.	.	.	.
8DD/	16a\	.	16ff#\	.	.	.	.	.	.	.	.	.	.	.
.	16a\	.	16ff#\	.	.	.	.	.	.	.	.	.	.	.
8DD/J	16a\	.	16ff#\	.	.	.	.	.	.	.	.	.	.	.
.	16a\JJ	.	16ff#\JJ	.	.	.	.	.	.	.	.	.	.	.
*	*	*	*Xtremolo	*	*	*	*	*	*	*	*	*	*	*
*	*Xtremolo	*	*	*	*	*	*	*	*	*	*	*	*	*
*Xtremolo	*	*	*	*	*	*	*	*	*	*	*	*	*	*
=71	=71	=71	=71	=71	=71	=71	=71	=71	=71	=71	=71	=71	=71	=71
4GG/	4G/ 4d 4b	.	4d\ 4b 4gg	.	4G\	-et	4B\	-ret	4g\	-ret	4B/	4g\	1ryy	1ryy
4AA/	4r	.	4r	.	4r	.	4r	.	4r	.	8.b\L	8.dd\L	.	.
.	.	.	.	.	.	.	.	.	.	.	16a/Jk	16cc/Jk	.	.
!	!	!	!	!	!	!	!	!	!LO:LB:g=original	!	!	!	!	!
4BB/	4r	.	4r	.	4r	.	4r	.	4r	.	4g/	4b/	.	.
8.D\L	8.cc/L	.	8.aa\L	.	8.D\L	su-	8.c\L	su-	8.a\	Su-	4d/	4a/	.	.
16D\Jk	16a/Jk	.	16ff#/Jk	.	16D\Jk	-pe-	16A\Jk	-pe-	16f#/	-pe-	.	.	.	.
!LO:LB:g=original	!	!	!	!	!	!	!	!	!	!	!	!	!	!
=72	=72	=72	=72	=72	=72	=72	=72	=72	=72	=72	=72	=72	=72	=72
4G\	4G/ 4d 4b	.	4d/ 4b 4gg	.	4G\	-ret	4B/	-ret	4g/	-ret.	4B/	4g/	1ryy	1ryy
4r	4r	.	4r	.	4r	.	4r	.	4r	.	8.b\L	8.dd\L	.	.
.	.	.	.	.	.	.	.	.	.	.	16a\Jk	16cc\Jk	.	.
4r	4r	.	4r	.	4r	.	4r	.	4r	.	4g/	4b\	.	.
*	*	*	*	*	*	*	*	*	*	*ij	*	*	*	*
8.D\L	8.cc/L	.	8.aa\L	.	8.D\L	Su-	8.c/L	su-	8.a\	Su-	4d\	4a\	.	.
16D\Jk	16a/Jk	.	16ff#/Jk	.	16D\Jk	-pe-	16A/Jk	-pe-	16f#/	-pe-	.	.	.	.
=73	=73	=73	=73	=73	=73	=73	=73	=73	=73	=73	=73	=73	=73	=73
2GG/	2G/ 2d 2b	.	2G/ 2d 2b 2gg	.	2G\	-ret.	2B/	-ret.	4g/	-ret.	2G/	2g\	1ryy	1ryy
*	*	*	*	*	*	*	*	*	*	*	*Xij	*	*	*
.	.	.	.	.	.	.	.	.	4r	.	.	.	.	.
!	!	!	!	!	!LO:TX:a:t=Il fine	!	!LO:TX:a:t=il fine	!	!	!	!LO:TX:a:t=il fine	!LO:TX:a:t=ic fine	!	!
2r	2r	.	2r	.	2r	.	2r	.	2r	.	2r	2r	.	.
==	==	==	==	==	==	==	==	==	==	==	==	==	==	==
*-	*-	*-	*-	*-	*-	*-	*-	*-	*-	*-	*-	*-	*-	*-
!!!system-decoration: [(s1,s2)][(s3,s4)][(s5,s6,s7)][(s8,s9)]s10
!!!AIN: 1 alto 1 bass 2 cor 2 flt 1 organ 1 soprn 2 violn
!!!ENC: Kamil Watkowski
!!!END: 2020-10-09
!!!ENC: Jan Barakat
!!!END: 2022-01-28
